(GCode generated by: DrawingBotV3 1.5.2)
(Time: 2024-09-14 at 18:21:24 CST)



G0 X-15.400 Y28.600

G1 X-14.800 Y28.900
G1 X-16.300 Y30.100
G1 X-13.600 Y29.500
G1 X-13.900 Y28.600
G1 X-15.100 Y28.600
G1 X-16.600 Y30.100
G1 X-16.000 Y30.400
G1 X-15.100 Y30.100
G1 X-15.100 Y31.000
G1 X-13.300 Y28.600
G1 X-15.100 Y29.500
G1 X-14.200 Y28.900
G1 X-15.400 Y29.200
G1 X-15.700 Y28.600
G1 X-15.100 Y28.300
G1 X-13.900 Y28.300
G1 X-12.700 Y29.800
G1 X-13.900 Y29.800
G1 X-13.300 Y30.100
G1 X-14.800 Y31.000
G1 X-15.700 Y29.800
G1 X-17.200 Y30.100
G1 X-16.000 Y29.200
G1 X-16.000 Y28.300
G1 X-14.800 Y28.000

G0 X-14.200 Y28.300

G1 X-14.800 Y29.800
G1 X-15.400 Y29.500
G1 X-15.700 Y30.400
G1 X-15.100 Y31.300
G1 X-14.500 Y31.000
G1 X-12.700 Y30.700
G1 X-12.700 Y30.100
G1 X-13.900 Y31.300
G1 X-14.200 Y30.100
G1 X-11.200 Y29.500
G1 X-10.600 Y29.500
G1 X-10.000 Y28.600
G1 X-10.000 Y29.200
G1 X-9.400 Y28.300
G1 X-9.700 Y29.200
G1 X-10.600 Y29.800
G1 X-12.400 Y30.100
G1 X-13.300 Y28.300
G1 X-15.100 Y27.700
G1 X-16.300 Y31.000
G1 X-17.200 Y30.400
G1 X-16.000 Y30.700
G1 X-14.800 Y30.400
G1 X-14.500 Y29.500
G1 X-13.900 Y29.200

G0 X-13.300 Y29.500

G1 X-12.700 Y28.900
G1 X-13.600 Y29.800
G1 X-13.900 Y29.200
G1 X-15.100 Y28.900
G1 X-14.800 Y28.300
G1 X-16.300 Y29.200
G1 X-16.600 Y29.800
G1 X-17.200 Y30.700
G1 X-16.600 Y31.000
G1 X-16.300 Y30.400
G1 X-16.900 Y30.700
G1 X-16.000 Y29.500
G1 X-13.000 Y31.000
G1 X-13.000 Y30.100
G1 X-12.400 Y30.400
G1 X-10.900 Y29.800
G1 X-11.500 Y30.400
G1 X-10.300 Y30.100
G1 X-10.300 Y29.500
G1 X-17.200 Y31.300
G1 X-19.300 Y31.300
G1 X-20.800 Y30.400
G1 X-20.200 Y30.400
G1 X-18.700 Y31.000

G0 X-18.100 Y29.800

G1 X-19.600 Y28.900
G1 X-19.300 Y29.500
G1 X-17.800 Y30.100
G1 X-18.100 Y31.000
G1 X-15.700 Y28.000
G1 X-16.600 Y25.900
G1 X-17.200 Y25.600
G1 X-16.000 Y25.900
G1 X-15.100 Y25.600
G1 X-17.200 Y25.000
G1 X-18.400 Y25.900
G1 X-15.400 Y28.000
G1 X-14.800 Y25.000
G1 X-12.700 Y25.300
G1 X-13.600 Y25.000
G1 X-12.100 Y26.200
G1 X-14.200 Y26.200
G1 X-16.900 Y25.300
G1 X-19.000 Y25.900
G1 X-20.500 Y25.600
G1 X-21.100 Y25.900
G1 X-18.700 Y25.600
G1 X-18.100 Y25.900
G1 X-10.900 Y27.400
G1 X-10.300 Y27.100
G1 X-11.500 Y27.100
G1 X-13.000 Y26.500
G1 X-14.200 Y26.500
G1 X-13.600 Y26.500

G0 X-12.400 Y25.300

G1 X-12.100 Y25.900
G1 X-12.700 Y25.000
G1 X-13.300 Y25.000
G1 X-14.800 Y24.700
G1 X-13.000 Y26.800
G1 X-12.100 Y26.500
G1 X-10.300 Y25.000
G1 X-10.900 Y24.100
G1 X-8.800 Y26.500
G1 X-10.000 Y27.100
G1 X-10.600 Y27.700
G1 X-11.500 Y27.700
G1 X-12.100 Y27.400
G1 X-13.000 Y27.700
G1 X-12.400 Y29.200
G1 X-15.700 Y30.700
G1 X-15.400 Y30.100
G1 X-17.500 Y29.800
G1 X-17.800 Y29.200
G1 X-17.200 Y29.500
G1 X-15.700 Y28.300
G1 X-14.800 Y28.600
G1 X-14.800 Y27.400
G1 X-15.700 Y27.100
G1 X-16.900 Y27.100
G1 X-17.200 Y26.500
G1 X-17.800 Y26.800

G0 X-16.900 Y26.500

G1 X-15.700 Y26.200
G1 X-15.400 Y26.800
G1 X-14.800 Y29.200
G1 X-15.700 Y29.500
G1 X-16.600 Y28.000
G1 X-16.000 Y28.000
G1 X-16.600 Y27.700
G1 X-19.000 Y27.100
G1 X-18.400 Y26.500
G1 X-14.500 Y24.400
G1 X-12.100 Y25.000
G1 X-11.500 Y25.600
G1 X-10.900 Y25.000
G1 X-11.500 Y23.500
G1 X-12.700 Y22.900
G1 X-13.000 Y24.100
G1 X-13.600 Y23.500
G1 X-16.600 Y24.700
G1 X-17.200 Y24.700
G1 X-16.000 Y25.000
G1 X-16.300 Y25.900
G1 X-15.100 Y25.000
G1 X-19.600 Y21.700
G1 X-19.000 Y21.700
G1 X-19.300 Y21.100

G0 X-21.100 Y25.600

G1 X-20.500 Y26.200
G1 X-18.400 Y26.200
G1 X-23.200 Y29.200
G1 X-22.900 Y28.300
G1 X-18.400 Y28.300
G1 X-17.800 Y29.800
G1 X-18.700 Y28.600
G1 X-19.300 Y30.100
G1 X-21.100 Y30.100
G1 X-21.400 Y29.200
G1 X-22.000 Y29.500
G1 X-21.400 Y28.900
G1 X-19.600 Y28.600
G1 X-21.100 Y27.400
G1 X-20.200 Y27.700
G1 X-20.800 Y26.200
G1 X-18.400 Y25.300
G1 X-21.100 Y25.300
G1 X-22.600 Y26.200
G1 X-22.000 Y27.400
G1 X-20.800 Y26.800
G1 X-21.400 Y27.400
G1 X-20.800 Y28.000

G0 X-19.300 Y28.900

G1 X-18.700 Y29.200
G1 X-19.000 Y28.600
G1 X-20.200 Y28.900
G1 X-16.300 Y31.600
G1 X-13.600 Y31.600
G1 X-15.400 Y31.000
G1 X-16.000 Y31.300
G1 X-16.900 Y31.600
G1 X-21.100 Y28.600
G1 X-22.000 Y28.900
G1 X-22.600 Y26.800
G1 X-22.600 Y28.600
G1 X-20.800 Y30.700
G1 X-22.000 Y30.100
G1 X-21.400 Y30.700
G1 X-19.900 Y31.300
G1 X-9.700 Y25.600
G1 X-13.000 Y23.200
G1 X-12.700 Y23.800
G1 X-12.100 Y23.500
G1 X-12.400 Y24.100
G1 X-11.800 Y23.800
G1 X-10.900 Y24.400
G1 X-11.500 Y24.700
G1 X-11.800 Y26.500
G1 X-10.000 Y25.600
G1 X-9.400 Y25.900
G1 X-9.100 Y26.800

G0 X-10.300 Y28.000

G1 X-10.000 Y29.500
G1 X-10.600 Y29.800
G1 X-10.900 Y30.400
G1 X-7.600 Y30.700
G1 X-6.100 Y29.800
G1 X-14.500 Y32.800
G1 X-15.700 Y34.000
G1 X-15.100 Y34.000
G1 X-14.500 Y33.700
G1 X-13.900 Y33.700
G1 X-14.200 Y31.900
G1 X-16.300 Y31.900
G1 X-18.700 Y31.600
G1 X-19.900 Y33.700
G1 X-20.800 Y33.700
G1 X-19.900 Y33.100
G1 X-15.700 Y33.100
G1 X-16.300 Y33.400
G1 X-11.800 Y32.800
G1 X-12.700 Y32.800
G1 X-13.000 Y33.400
G1 X-14.200 Y31.300
G1 X-14.200 Y30.700
G1 X-15.400 Y31.300

G0 X-15.700 Y34.600

G1 X-16.600 Y34.600
G1 X-19.300 Y34.300
G1 X-22.000 Y30.700
G1 X-21.400 Y31.000
G1 X-22.000 Y30.400
G1 X-22.900 Y30.100
G1 X-23.200 Y30.700
G1 X-23.500 Y28.600
G1 X-22.900 Y28.000
G1 X-23.500 Y28.300
G1 X-22.000 Y29.800
G1 X-18.700 Y29.500
G1 X-18.100 Y29.800
G1 X-19.900 Y30.700
G1 X-19.600 Y31.600
G1 X-19.000 Y31.600
G1 X-18.400 Y30.700
G1 X-18.400 Y31.900
G1 X-16.900 Y30.100
G1 X-17.800 Y30.400
G1 X-16.300 Y34.000
G1 X-19.000 Y34.000

G0 X-18.700 Y34.000

G1 X-18.100 Y34.300
G1 X-14.500 Y34.300
G1 X-10.900 Y32.800
G1 X-10.300 Y33.100
G1 X-10.900 Y33.400
G1 X-11.500 Y34.000
G1 X-10.600 Y34.000
G1 X-4.900 Y32.500
G1 X-4.000 Y31.600
G1 X-3.400 Y31.300
G1 X-3.400 Y30.400
G1 X-2.800 Y30.100
G1 X-.700 Y30.100
G1 X-1.300 Y29.800
G1 X-1.900 Y30.400
G1 X-2.500 Y30.700
G1 X-2.200 Y29.800
G1 X-2.800 Y29.500
G1 X-4.900 Y32.200
G1 X-5.500 Y32.200
G1 X-6.700 Y31.900
G1 X-8.800 Y32.500
G1 X-7.900 Y32.800
G1 X-3.700 Y30.100

G0 X-3.100 Y30.400

G1 X-2.500 Y30.100
G1 X-1.600 Y29.800
G1 X3.500 Y29.800
G1 X7.700 Y31.900
G1 X9.200 Y32.500
G1 X11.000 Y33.100
G1 X11.900 Y33.100
G1 X13.400 Y33.700
G1 X15.800 Y33.700
G1 X21.200 Y34.300
G1 X24.200 Y34.300
G1 X28.700 Y33.400
G1 X29.600 Y32.800
G1 X29.000 Y32.800
G1 X30.200 Y31.900
G1 X30.500 Y29.200
G1 X29.900 Y27.100
G1 X29.900 Y24.700
G1 X29.300 Y21.700
G1 X27.800 Y18.700
G1 X26.000 Y17.200
G1 X24.800 Y15.700
G1 X21.200 Y14.500
G1 X19.100 Y14.500
G1 X16.100 Y14.200
G1 X14.900 Y13.900
G1 X11.300 Y14.500
G1 X8.000 Y16.900
G1 X6.800 Y19.600
G1 X5.900 Y21.100
G1 X5.300 Y22.900
G1 X5.300 Y25.000
G1 X5.000 Y27.700
G1 X4.700 Y28.600
G1 X4.700 Y26.800
G1 X5.000 Y25.300
G1 X5.000 Y24.700
G1 X6.200 Y21.400
G1 X5.300 Y22.300

G0 X5.000 Y24.100

G1 X5.300 Y23.200
G1 X5.300 Y22.000
G1 X5.600 Y21.400
G1 X5.900 Y20.200
G1 X7.100 Y19.900
G1 X8.600 Y16.600
G1 X8.900 Y16.000
G1 X10.100 Y15.400
G1 X14.600 Y13.600
G1 X15.800 Y13.600
G1 X17.600 Y14.500
G1 X14.900 Y14.500
G1 X12.800 Y13.900
G1 X11.600 Y14.500
G1 X10.700 Y14.500
G1 X9.800 Y15.100
G1 X10.700 Y8.500
G1 X8.900 Y7.900
G1 X7.700 Y8.500
G1 X8.300 Y7.600
G1 X9.500 Y7.600
G1 X10.400 Y8.200
G1 X10.100 Y9.400
G1 X11.000 Y9.700
G1 X11.000 Y11.200

G0 X13.100 Y13.600

G1 X11.900 Y14.200
G1 X11.300 Y14.200
G1 X9.800 Y13.000
G1 X9.800 Y12.400
G1 X8.900 Y13.900
G1 X9.500 Y13.900
G1 X9.200 Y13.000
G1 X10.700 Y10.900
G1 X10.700 Y10.000
G1 X11.000 Y9.400
G1 X10.400 Y8.800
G1 X9.800 Y8.500
G1 X9.800 Y9.100
G1 X8.900 Y8.500
G1 X7.700 Y8.800
G1 X7.100 Y9.100
G1 X5.300 Y9.100
G1 X4.100 Y9.400
G1 X4.100 Y8.500
G1 X3.200 Y7.900
G1 X2.300 Y7.900
G1 X3.200 Y8.800
G1 X2.600 Y8.500
G1 X1.700 Y8.500
G1 X2.300 Y7.900

G0 X2.000 Y7.900

G1 X1.400 Y7.900
G1 X2.300 Y8.200
G1 X4.400 Y9.100
G1 X6.500 Y9.100
G1 X7.400 Y8.500
G1 X8.600 Y7.900
G1 X10.100 Y8.500
G1 X9.500 Y7.900
G1 X8.900 Y8.200
G1 X10.400 Y9.100
G1 X10.700 Y10.600
G1 X10.700 Y11.800
G1 X7.400 Y18.700
G1 X7.100 Y18.100
G1 X7.700 Y17.200
G1 X8.000 Y16.600
G1 X10.100 Y15.100
G1 X13.400 Y14.500
G1 X17.600 Y13.900
G1 X18.200 Y14.200
G1 X20.900 Y14.200
G1 X21.200 Y14.800

G0 X20.900 Y14.800

G1 X20.300 Y14.800
G1 X21.200 Y14.200
G1 X21.800 Y15.100
G1 X23.600 Y14.800
G1 X26.900 Y18.400
G1 X28.100 Y19.000
G1 X27.800 Y19.900
G1 X28.700 Y20.500
G1 X28.400 Y21.400
G1 X28.700 Y19.600
G1 X26.900 Y17.200
G1 X26.300 Y17.800
G1 X26.600 Y17.200
G1 X29.300 Y21.100
G1 X30.200 Y27.400
G1 X29.300 Y24.400
G1 X29.000 Y23.500
G1 X29.000 Y22.600
G1 X29.300 Y22.000
G1 X29.600 Y25.000
G1 X29.600 Y27.100
G1 X29.900 Y28.600
G1 X29.900 Y31.600

G0 X29.900 Y31.900

G1 X30.200 Y32.500
G1 X29.600 Y32.500
G1 X28.100 Y34.000
G1 X25.700 Y33.700
G1 X25.100 Y33.700
G1 X23.000 Y34.000
G1 X21.500 Y34.000
G1 X18.200 Y34.600
G1 X16.400 Y34.000
G1 X15.800 Y34.300
G1 X12.500 Y33.100
G1 X11.900 Y33.400
G1 X13.100 Y34.000
G1 X13.700 Y34.000
G1 X16.400 Y33.400
G1 X17.300 Y34.000
G1 X19.700 Y34.600
G1 X24.500 Y34.600
G1 X28.700 Y33.100
G1 X28.100 Y33.700
G1 X27.500 Y33.700
G1 X28.100 Y28.900
G1 X27.800 Y28.300
G1 X27.800 Y29.800

G0 X28.400 Y30.700

G1 X27.800 Y30.100
G1 X28.700 Y32.800
G1 X27.200 Y33.400
G1 X25.700 Y33.400
G1 X26.600 Y34.000
G1 X26.300 Y33.400
G1 X25.700 Y34.000
G1 X19.400 Y33.700
G1 X20.600 Y34.000
G1 X17.600 Y33.700
G1 X18.200 Y33.700
G1 X17.600 Y34.600
G1 X16.100 Y34.000
G1 X16.700 Y34.600
G1 X21.200 Y27.700
G1 X21.200 Y29.500
G1 X20.000 Y27.700
G1 X18.800 Y28.600
G1 X19.100 Y27.700
G1 X17.900 Y28.300
G1 X18.500 Y26.200
G1 X19.400 Y26.500
G1 X20.600 Y26.500
G1 X20.000 Y26.500

G0 X22.400 Y26.200

G1 X23.000 Y26.500
G1 X22.700 Y27.100
G1 X22.100 Y26.800
G1 X19.700 Y26.800
G1 X19.700 Y25.600
G1 X21.200 Y25.600
G1 X23.000 Y26.200
G1 X23.000 Y27.400
G1 X23.600 Y27.100
G1 X23.300 Y26.500
G1 X20.900 Y25.900
G1 X17.300 Y32.200
G1 X16.100 Y32.200
G1 X13.400 Y31.900
G1 X15.500 Y31.000
G1 X16.400 Y30.700
G1 X17.900 Y30.700
G1 X19.100 Y30.100
G1 X17.600 Y30.100
G1 X16.400 Y29.200
G1 X15.800 Y29.500
G1 X17.000 Y29.200
G1 X17.900 Y29.200
G1 X17.300 Y27.700

G0 X16.700 Y28.300

G1 X18.500 Y28.600
G1 X19.400 Y31.600
G1 X19.400 Y30.700
G1 X17.300 Y30.400
G1 X16.700 Y31.000
G1 X16.100 Y29.800
G1 X14.600 Y30.100
G1 X15.500 Y29.200
G1 X16.100 Y29.200
G1 X17.300 Y29.500
G1 X16.400 Y29.800
G1 X15.200 Y31.900
G1 X16.700 Y31.900
G1 X17.600 Y31.300
G1 X18.200 Y31.900
G1 X17.300 Y31.900
G1 X12.800 Y30.700
G1 X12.200 Y28.900
G1 X11.600 Y29.200
G1 X11.300 Y28.300
G1 X12.500 Y30.400
G1 X13.700 Y31.000
G1 X14.300 Y30.100
G1 X14.900 Y29.800

G0 X15.500 Y29.500

G1 X17.900 Y29.500
G1 X15.500 Y28.900
G1 X15.200 Y29.800
G1 X17.900 Y29.800
G1 X17.900 Y31.300
G1 X16.400 Y31.000
G1 X15.200 Y31.300
G1 X14.300 Y30.700
G1 X17.000 Y31.300
G1 X17.600 Y30.100
G1 X15.800 Y30.100
G1 X16.700 Y30.700
G1 X13.100 Y30.400
G1 X14.000 Y31.000
G1 X17.300 Y28.300
G1 X17.900 Y29.200
G1 X17.000 Y28.900
G1 X15.800 Y28.600
G1 X14.900 Y28.600
G1 X15.500 Y29.500
G1 X16.700 Y28.600
G1 X16.400 Y28.000

G0 X16.100 Y28.000

G1 X15.500 Y28.000
G1 X14.600 Y28.300
G1 X14.600 Y29.200
G1 X15.200 Y28.900
G1 X16.100 Y28.000
G1 X17.000 Y25.900
G1 X20.300 Y26.200
G1 X21.500 Y26.500
G1 X22.700 Y26.500
G1 X18.800 Y25.600
G1 X19.400 Y25.900
G1 X18.800 Y25.900
G1 X18.200 Y25.600
G1 X13.400 Y25.900
G1 X13.400 Y25.300
G1 X17.600 Y26.500
G1 X14.600 Y26.200
G1 X18.500 Y29.500
G1 X14.600 Y30.700
G1 X15.200 Y31.000
G1 X14.000 Y31.300
G1 X14.600 Y31.000
G1 X12.800 Y30.100
G1 X11.900 Y30.400
G1 X11.300 Y30.400

G0 X11.300 Y28.900

G1 X11.300 Y29.500
G1 X11.900 Y30.100
G1 X11.300 Y30.100
G1 X11.600 Y29.500
G1 X12.200 Y29.500
G1 X12.500 Y28.900
G1 X11.300 Y28.000
G1 X11.300 Y28.900
G1 X14.300 Y30.400
G1 X16.400 Y31.000
G1 X14.900 Y29.200
G1 X14.900 Y30.100
G1 X17.900 Y27.400
G1 X16.700 Y27.400
G1 X18.500 Y25.900
G1 X17.600 Y26.200
G1 X16.100 Y25.900
G1 X15.200 Y25.600
G1 X14.300 Y27.100
G1 X16.100 Y26.800
G1 X15.800 Y28.000
G1 X15.200 Y27.100
G1 X13.100 Y31.900
G1 X13.700 Y31.300
G1 X15.800 Y31.600

G0 X15.800 Y31.300

G1 X20.600 Y31.300
G1 X22.100 Y31.900
G1 X21.200 Y30.400
G1 X20.600 Y30.700
G1 X19.700 Y31.000
G1 X20.600 Y29.800
G1 X11.300 Y27.100
G1 X11.000 Y28.600
G1 X11.300 Y29.200
G1 X11.000 Y30.100
G1 X13.100 Y31.000
G1 X12.800 Y31.900
G1 X11.300 Y26.200
G1 X10.700 Y25.600
G1 X10.700 Y27.100
G1 X11.900 Y26.500
G1 X10.700 Y26.800
G1 X11.600 Y26.200
G1 X14.300 Y26.200
G1 X12.800 Y24.700
G1 X13.100 Y25.300
G1 X11.300 Y25.600
G1 X11.000 Y26.200
G1 X13.100 Y25.600
G1 X13.700 Y25.600

G0 X17.900 Y28.900

G1 X17.900 Y28.300
G1 X18.200 Y28.900
G1 X18.200 Y31.600
G1 X16.100 Y31.300
G1 X16.700 Y31.600
G1 X17.300 Y31.300
G1 X17.600 Y30.700
G1 X17.000 Y30.400
G1 X17.000 Y31.000
G1 X18.500 Y31.000
G1 X18.500 Y29.800
G1 X19.100 Y31.600
G1 X18.500 Y31.300
G1 X18.500 Y31.900
G1 X17.000 Y27.700
G1 X14.600 Y29.800
G1 X15.200 Y28.300
G1 X16.100 Y28.300
G1 X16.400 Y27.700
G1 X18.500 Y28.300
G1 X17.900 Y28.900
G1 X16.400 Y29.500
G1 X17.300 Y30.100
G1 X16.700 Y30.400
G1 X17.300 Y29.800

G0 X22.400 Y29.800

G1 X21.800 Y29.800
G1 X22.400 Y29.500
G1 X23.000 Y29.800
G1 X22.700 Y29.200
G1 X20.900 Y29.800
G1 X19.700 Y27.700
G1 X15.800 Y26.500
G1 X13.700 Y27.100
G1 X14.300 Y28.600
G1 X17.000 Y28.900
G1 X18.200 Y29.800
G1 X20.600 Y30.100
G1 X23.000 Y30.100
G1 X22.400 Y29.800
G1 X15.200 Y34.300
G1 X14.300 Y34.000
G1 X6.200 Y31.000
G1 X5.600 Y30.400
G1 X6.200 Y30.700
G1 X5.600 Y30.100
G1 X5.000 Y28.600
G1 X5.600 Y29.200
G1 X4.100 Y29.500
G1 X5.000 Y27.100
G1 X4.700 Y25.000
G1 X5.600 Y24.700
G1 X5.600 Y22.300
G1 X6.500 Y19.000
G1 X7.100 Y19.300
G1 X6.200 Y21.100
G1 X6.800 Y20.500
G1 X6.500 Y19.600
G1 X6.800 Y18.700
G1 X7.400 Y19.000
G1 X6.800 Y18.400
G1 X9.500 Y16.000
G1 X10.100 Y15.700
G1 X11.000 Y15.100
G1 X14.000 Y13.900
G1 X14.600 Y14.500
G1 X16.400 Y13.600
G1 X19.400 Y13.900

G0 X23.000 Y14.500

G1 X20.300 Y13.900
G1 X19.400 Y14.200
G1 X18.800 Y14.500
G1 X17.900 Y13.600
G1 X19.400 Y13.600
G1 X20.000 Y14.500
G1 X19.100 Y14.800
G1 X17.000 Y13.900
G1 X14.600 Y13.900
G1 X14.000 Y13.600
G1 X13.400 Y13.600
G1 X13.100 Y14.500
G1 X11.000 Y15.400
G1 X10.100 Y16.000
G1 X8.300 Y16.000
G1 X7.100 Y17.500
G1 X7.400 Y18.100
G1 X6.500 Y20.200
G1 X7.100 Y20.200
G1 X6.200 Y21.700
G1 X6.200 Y22.300
G1 X5.300 Y21.400
G1 X5.000 Y22.000
G1 X5.000 Y22.900
G1 X5.300 Y24.400

G0 X5.600 Y25.000

G1 X5.600 Y27.400
G1 X3.800 Y28.600
G1 X4.700 Y27.400
G1 X4.700 Y26.200
G1 X4.400 Y26.800
G1 X4.400 Y27.400
G1 X5.300 Y28.600
G1 X5.000 Y29.800
G1 X-1.600 Y29.200
G1 X-2.200 Y30.700
G1 X.200 Y30.100
G1 X1.700 Y30.100
G1 X2.600 Y29.800
G1 X3.200 Y29.800
G1 X5.000 Y28.900
G1 X4.400 Y29.500
G1 X2.300 Y28.900
G1 X-.400 Y28.900
G1 X-1.900 Y28.600
G1 X-2.800 Y29.200

G0 X-2.500 Y28.600

G1 X-1.900 Y28.300
G1 X-1.900 Y27.700
G1 X-2.500 Y28.000
G1 X-2.200 Y28.600
G1 X-3.100 Y30.400
G1 X-4.300 Y31.000
G1 X-4.600 Y31.600
G1 X-11.800 Y33.700
G1 X-14.200 Y33.700
G1 X-13.600 Y34.000
G1 X-12.700 Y34.000
G1 X-10.300 Y32.800
G1 X-9.400 Y32.800
G1 X-7.600 Y33.100
G1 X-6.100 Y32.200
G1 X-1.600 Y28.900
G1 X-2.800 Y25.300
G1 X-1.900 Y25.900
G1 X-1.900 Y27.400
G1 X-2.500 Y28.600
G1 X-2.800 Y25.900
G1 X-1.900 Y24.700
G1 X-2.500 Y22.300

G0 X-2.200 Y22.900

G1 X-2.800 Y21.400
G1 X-3.100 Y20.800
G1 X-3.100 Y20.200
G1 X-4.900 Y20.500
G1 X-4.900 Y22.300
G1 X-5.500 Y24.100
G1 X-5.500 Y20.500
G1 X-4.600 Y19.600
G1 X-4.600 Y19.000
G1 X-4.900 Y18.100
G1 X-3.700 Y19.000
G1 X-3.400 Y19.900
G1 X-4.000 Y19.300
G1 X-3.700 Y18.700
G1 X-7.000 Y14.200
G1 X-9.700 Y13.300
G1 X-10.900 Y12.700
G1 X-14.500 Y12.700
G1 X-15.400 Y13.000
G1 X-11.500 Y13.000
G1 X-10.900 Y13.300
G1 X-10.300 Y13.300

G0 X-11.200 Y13.000

G1 X-15.700 Y13.000
G1 X-19.000 Y13.900
G1 X-19.600 Y13.600
G1 X-20.800 Y13.900
G1 X-22.000 Y14.500
G1 X-22.600 Y14.500
G1 X-26.500 Y18.700
G1 X-26.500 Y19.300
G1 X-25.000 Y16.900
G1 X-22.600 Y14.800
G1 X-18.100 Y13.300
G1 X-11.800 Y13.300
G1 X-9.700 Y13.900
G1 X-9.100 Y13.900
G1 X-6.700 Y15.100
G1 X-4.000 Y19.600
G1 X-3.400 Y20.500
G1 X-2.500 Y23.500
G1 X-2.500 Y25.300
G1 X-2.200 Y27.700
G1 X-2.500 Y28.300

G0 X-2.200 Y28.300

G1 X-2.500 Y27.700
G1 X-2.500 Y26.800
G1 X-2.200 Y26.200
G1 X-2.200 Y25.000
G1 X-2.800 Y25.000
G1 X-2.800 Y23.200
G1 X-3.400 Y21.400
G1 X-3.100 Y20.500
G1 X-3.700 Y19.900
G1 X-5.800 Y16.000
G1 X-5.800 Y16.600
G1 X-7.000 Y15.400
G1 X-6.100 Y15.700
G1 X-8.500 Y13.900
G1 X-11.200 Y13.300
G1 X-11.800 Y13.600
G1 X-7.600 Y14.800
G1 X-7.000 Y14.500
G1 X-5.800 Y15.700
G1 X-3.700 Y19.300
G1 X-4.000 Y19.900
G1 X-3.700 Y20.500
G1 X-3.100 Y21.100
G1 X-2.500 Y23.200
G1 X-2.200 Y24.700

G0 X-4.300 Y25.600

G1 X-4.000 Y25.000
G1 X-4.900 Y24.700
G1 X-4.000 Y25.300
G1 X-4.000 Y26.500
G1 X-4.600 Y25.900
G1 X-4.000 Y26.200
G1 X-5.200 Y24.700
G1 X-4.900 Y23.800
G1 X-4.300 Y24.400
G1 X-5.200 Y16.300
G1 X-5.800 Y17.200
G1 X-5.200 Y16.900
G1 X-5.800 Y16.300
G1 X-6.700 Y14.800
G1 X-7.300 Y15.100
G1 X-9.100 Y16.600
G1 X-10.600 Y15.700
G1 X-11.500 Y16.000
G1 X-12.100 Y15.700
G1 X-13.300 Y16.000
G1 X-15.700 Y15.700
G1 X-14.800 Y16.000
G1 X-13.000 Y15.400
G1 X-12.700 Y16.000
G1 X-13.300 Y15.700

G0 X-12.100 Y15.700

G1 X-12.700 Y15.700
G1 X-12.100 Y16.000
G1 X-11.500 Y15.700
G1 X-10.600 Y16.000
G1 X-8.200 Y17.200
G1 X-7.600 Y9.100
G1 X-7.900 Y9.700
G1 X-8.500 Y11.200
G1 X-7.900 Y10.900
G1 X-8.500 Y11.800
G1 X-11.500 Y13.300
G1 X-16.000 Y13.300
G1 X-16.600 Y13.000
G1 X-18.100 Y13.000
G1 X-21.400 Y13.900
G1 X-21.700 Y14.500
G1 X-20.200 Y13.900
G1 X-19.600 Y13.900
G1 X-15.700 Y13.600
G1 X-8.200 Y13.600
G1 X-9.100 Y14.200
G1 X-8.200 Y14.500
G1 X-5.500 Y17.200
G1 X-7.600 Y14.200

G0 X-9.100 Y10.600

G1 X-8.500 Y10.000
G1 X-8.800 Y10.600
G1 X-8.200 Y11.800
G1 X-8.800 Y11.500
G1 X-8.500 Y10.600
G1 X-8.800 Y9.700
G1 X-6.100 Y7.900
G1 X-5.200 Y7.900
G1 X-5.800 Y7.600
G1 X-7.600 Y7.900
G1 X-8.200 Y8.800
G1 X-7.900 Y6.100
G1 X-8.200 Y7.600
G1 X-6.400 Y7.300
G1 X-4.600 Y7.600
G1 X-4.600 Y9.100
G1 X-3.700 Y9.400
G1 X-3.100 Y9.700
G1 X-1.900 Y10.000
G1 X-1.300 Y9.400
G1 X-1.900 Y9.700
G1 X-6.100 Y8.200
G1 X-7.000 Y8.200
G1 X-10.300 Y-1.700
G1 X-9.700 Y-2.300
G1 X-11.200 Y-2.300
G1 X-12.100 Y-2.600
G1 X-12.100 Y-1.100
G1 X-11.200 Y-1.700
G1 X-11.800 Y-1.700
G1 X-13.000 Y-2.900
G1 X-13.300 Y-3.800
G1 X-11.800 Y-3.800
G1 X-7.600 Y-5.000
G1 X-7.300 Y-4.400
G1 X-7.900 Y-4.700
G1 X-9.700 Y-9.200
G1 X-9.700 Y-7.700
G1 X-7.900 Y-8.600
G1 X-7.000 Y-8.300
G1 X-6.700 Y-7.100
G1 X-4.600 Y-6.800
G1 X-4.300 Y-7.400
G1 X-3.700 Y-7.700
G1 X-7.900 Y-10.100
G1 X-8.200 Y-9.200
G1 X-6.400 Y-11.000
G1 X-5.200 Y-11.900
G1 X-5.800 Y-11.600
G1 X-6.400 Y-11.900
G1 X-4.300 Y-11.600
G1 X-8.800 Y-11.000
G1 X-8.800 Y-10.400
G1 X-7.900 Y-11.000
G1 X-10.600 Y-11.600
G1 X-10.600 Y-10.400
G1 X-10.000 Y-8.000
G1 X-8.800 Y-8.300
G1 X-13.900 Y-15.200
G1 X-14.500 Y-14.300
G1 X-15.400 Y-14.000
G1 X-12.100 Y-17.000
G1 X-11.800 Y-17.600
G1 X-13.900 Y-15.500

G0 X-16.000 Y-16.100

G1 X-15.100 Y-16.700
G1 X-13.600 Y-17.900
G1 X-12.400 Y-19.100
G1 X-14.800 Y-18.200
G1 X-15.100 Y-17.600
G1 X-16.600 Y-16.100
G1 X-17.200 Y-14.600
G1 X-16.600 Y-14.900
G1 X-18.400 Y-13.100
G1 X-18.100 Y-13.700
G1 X-19.300 Y-12.500
G1 X-24.400 Y-22.700
G1 X-24.100 Y-23.300
G1 X-24.100 Y-23.900
G1 X-23.800 Y-29.900
G1 X-24.100 Y-28.400
G1 X-24.100 Y-26.900
G1 X-24.700 Y-26.000
G1 X-24.700 Y-20.600
G1 X-23.800 Y-20.000
G1 X-23.500 Y-22.100

G0 X-23.800 Y-21.200

G1 X-24.100 Y-21.800
G1 X-22.600 Y-18.500
G1 X-23.200 Y-19.100
G1 X-23.500 Y-19.700
G1 X-22.300 Y-18.800
G1 X-22.300 Y-18.200
G1 X-24.100 Y-19.700
G1 X-24.700 Y-22.400
G1 X-24.400 Y-26.000
G1 X-23.500 Y-27.800
G1 X-23.200 Y-29.300
G1 X-22.900 Y-30.200
G1 X-23.500 Y-30.500
G1 X-22.900 Y-29.600
G1 X-22.900 Y-29.000
G1 X-23.800 Y-25.700
G1 X-24.400 Y-23.300
G1 X-23.800 Y-21.800
G1 X-24.100 Y-20.600
G1 X-22.900 Y-19.400
G1 X-30.100 Y-22.700
G1 X-32.800 Y-24.800
G1 X-34.900 Y-25.400
G1 X-37.600 Y-26.000
G1 X-41.800 Y-27.500

G0 X-42.100 Y-34.700

G1 X-41.500 Y-34.400
G1 X-42.700 Y-33.500
G1 X-43.300 Y-32.600
G1 X-37.900 Y-36.800
G1 X-37.300 Y-36.800
G1 X-37.600 Y-36.200
G1 X-38.500 Y-35.600
G1 X-39.400 Y-35.600
G1 X-39.700 Y-36.500
G1 X-40.300 Y-36.200
G1 X-42.700 Y-34.700
G1 X-43.600 Y-33.800
G1 X-44.800 Y-31.100
G1 X-44.200 Y-31.700
G1 X-44.500 Y-32.900
G1 X-43.000 Y-33.800
G1 X-42.100 Y-35.000
G1 X-41.200 Y-35.300
G1 X-40.600 Y-35.000
G1 X-39.700 Y-35.600
G1 X-39.100 Y-36.800
G1 X-38.500 Y-36.800
G1 X-37.600 Y-36.500
G1 X-38.500 Y-35.900
G1 X-39.100 Y-35.900

G0 X-39.700 Y-35.900

G1 X-40.300 Y-35.900
G1 X-43.300 Y-33.800
G1 X-43.900 Y-32.600
G1 X-44.500 Y-32.300
G1 X-45.100 Y-31.100
G1 X-42.100 Y-34.400
G1 X-39.100 Y-36.500
G1 X-37.900 Y-36.500
G1 X-39.700 Y-35.900
G1 X-44.800 Y-32.300
G1 X-46.000 Y-29.900
G1 X-47.500 Y-30.500
G1 X-46.300 Y-29.600
G1 X-44.800 Y-29.300
G1 X-42.100 Y-27.800
G1 X-40.300 Y-27.500
G1 X-40.600 Y-26.900
G1 X-40.000 Y-27.200
G1 X-38.800 Y-26.600
G1 X-37.300 Y-26.300
G1 X-36.100 Y-26.000
G1 X-34.300 Y-25.400
G1 X-33.400 Y-25.400
G1 X-32.800 Y-24.500
G1 X-32.200 Y-24.800
G1 X-30.100 Y-23.000

G0 X-32.200 Y-24.500

G1 X-31.900 Y-23.900
G1 X-33.700 Y-24.800
G1 X-35.800 Y-25.400
G1 X-37.900 Y-25.700
G1 X-36.400 Y-26.300
G1 X-39.700 Y-27.200
G1 X-39.700 Y-26.300
G1 X-39.100 Y-26.300
G1 X-38.500 Y-26.000
G1 X-37.900 Y-26.000
G1 X-43.300 Y-28.100
G1 X-44.500 Y-28.700
G1 X-43.900 Y-28.100
G1 X-43.000 Y-27.800
G1 X-41.800 Y-28.100
G1 X-37.600 Y-26.900
G1 X-28.600 Y-21.500
G1 X-28.300 Y-22.100
G1 X-28.900 Y-21.500
G1 X-29.800 Y-23.000
G1 X-30.700 Y-23.900
G1 X-31.300 Y-23.300
G1 X-33.100 Y-25.400

G0 X-24.400 Y-21.500

G1 X-23.800 Y-20.000
G1 X-23.500 Y-19.400
G1 X-23.800 Y-20.600
G1 X-24.400 Y-21.800
G1 X-24.400 Y-24.500
G1 X-23.800 Y-26.600
G1 X-23.800 Y-28.100
G1 X-23.200 Y-29.900
G1 X-22.300 Y-32.300
G1 X-22.000 Y-33.800
G1 X-18.700 Y-38.900
G1 X-17.800 Y-40.400
G1 X-15.100 Y-42.500
G1 X-14.200 Y-43.700
G1 X-9.700 Y-46.400
G1 X-7.300 Y-48.200
G1 X-6.100 Y-48.500
G1 X-4.900 Y-49.100
G1 X-3.400 Y-49.100
G1 X-1.600 Y-50.000
G1 X2.600 Y-50.600
G1 X8.900 Y-50.600
G1 X10.700 Y-50.000
G1 X14.000 Y-49.100
G1 X14.900 Y-49.100
G1 X15.800 Y-48.500
G1 X17.600 Y-47.900
G1 X19.700 Y-46.400
G1 X20.600 Y-46.100
G1 X24.200 Y-42.800
G1 X23.000 Y-43.700
G1 X21.200 Y-45.200
G1 X20.600 Y-45.800

G0 X20.300 Y-45.800

G1 X20.900 Y-45.200
G1 X24.200 Y-42.200
G1 X23.900 Y-42.800
G1 X24.500 Y-42.200
G1 X24.800 Y-41.600
G1 X25.400 Y-41.900
G1 X22.700 Y-44.600
G1 X20.900 Y-46.100
G1 X18.800 Y-47.300
G1 X17.900 Y-47.300
G1 X15.500 Y-49.100
G1 X14.300 Y-49.400
G1 X13.400 Y-49.100
G1 X13.700 Y-49.700
G1 X11.300 Y-50.000
G1 X10.400 Y-49.700
G1 X8.000 Y-50.300
G1 X1.700 Y-50.300

G0 X-5.500 Y-48.500

G1 X-4.900 Y-48.800
G1 X-5.800 Y-48.200
G1 X-2.500 Y-49.100
G1 X-1.900 Y-50.000
G1 X-2.800 Y-50.000
G1 X-3.700 Y-49.100
G1 X-4.600 Y-48.800
G1 X-4.900 Y-49.400
G1 X-7.000 Y-47.600
G1 X-7.900 Y-47.300
G1 X-8.800 Y-46.400
G1 X-9.700 Y-46.700
G1 X-12.400 Y-44.900
G1 X-13.000 Y-44.300
G1 X-9.400 Y-46.100
G1 X-6.100 Y-47.900
G1 X-8.200 Y-48.200
G1 X-10.300 Y-46.700
G1 X-10.900 Y-46.100
G1 X-12.100 Y-45.800
G1 X-12.700 Y-45.500
G1 X-13.600 Y-44.600
G1 X-12.400 Y-44.300
G1 X-13.000 Y-43.700

G0 X-15.700 Y-42.500

G1 X-20.200 Y-35.900
G1 X-19.900 Y-36.800
G1 X-19.300 Y-37.700
G1 X-17.800 Y-39.500
G1 X-16.900 Y-41.600
G1 X-13.900 Y-44.300
G1 X-13.600 Y-43.700
G1 X-14.200 Y-44.000
G1 X-16.600 Y-41.300
G1 X-16.000 Y-41.600
G1 X-16.900 Y-40.700
G1 X-17.800 Y-40.100
G1 X-18.700 Y-39.800
G1 X-21.700 Y-33.800
G1 X-21.700 Y-34.400
G1 X-22.900 Y-32.300
G1 X-22.300 Y-31.400
G1 X-22.000 Y-32.600
G1 X-20.500 Y-35.600
G1 X-21.400 Y-35.900
G1 X-20.500 Y-37.100
G1 X-20.500 Y-36.500
G1 X-21.100 Y-35.600
G1 X-21.400 Y-35.000
G1 X-21.100 Y-35.600

G0 X-19.900 Y-37.400

G1 X-19.600 Y-38.000
G1 X-19.000 Y-38.900
G1 X-17.800 Y-39.800
G1 X-17.500 Y-40.400
G1 X-16.900 Y-41.300
G1 X-15.100 Y-42.800
G1 X-14.200 Y-43.400
G1 X-12.400 Y-45.200
G1 X-10.000 Y-46.700
G1 X-8.800 Y-47.300
G1 X-9.400 Y-46.400
G1 X-7.300 Y-47.900
G1 X-7.900 Y-47.900
G1 X-8.500 Y-47.600
G1 X-10.000 Y-46.400
G1 X-10.600 Y-46.700
G1 X-13.300 Y-43.700
G1 X-13.600 Y-44.300
G1 X-12.700 Y-45.200
G1 X-13.300 Y-44.000
G1 X-13.900 Y-43.400
G1 X-14.500 Y-43.100
G1 X-17.500 Y-41.000
G1 X-22.000 Y-34.700
G1 X-23.800 Y-28.700

G0 X-22.600 Y-33.800

G1 X-22.300 Y-32.900
G1 X-22.600 Y-31.400
G1 X-22.300 Y-30.800
G1 X-22.900 Y-30.500
G1 X-22.600 Y-31.100
G1 X-23.500 Y-30.800
G1 X-20.800 Y-37.100
G1 X-16.900 Y-41.000
G1 X-16.900 Y-40.400
G1 X-14.500 Y-42.800
G1 X-14.800 Y-46.700
G1 X-15.700 Y-46.400
G1 X-14.800 Y-47.000
G1 X-14.500 Y-47.600
G1 X-14.500 Y-47.000
G1 X-13.300 Y-47.900
G1 X-14.200 Y-47.600
G1 X-12.400 Y-49.100
G1 X-11.800 Y-49.400
G1 X-12.700 Y-48.500
G1 X-10.000 Y-49.400
G1 X-8.800 Y-50.600
G1 X-11.800 Y-49.100
G1 X-10.300 Y-49.700

G0 X-7.000 Y-47.900

G1 X-6.400 Y-48.200
G1 X-7.000 Y-48.500
G1 X-4.300 Y-49.400
G1 X-2.500 Y-49.700
G1 X-.400 Y-49.700
G1 X.800 Y-50.600
G1 X1.400 Y-50.600
G1 X-.100 Y-49.700
G1 X-1.000 Y-50.300
G1 X.200 Y-50.600
G1 X1.700 Y-50.900
G1 X6.800 Y-50.900
G1 X8.900 Y-50.300
G1 X9.800 Y-50.600
G1 X13.400 Y-50.000
G1 X11.900 Y-49.400
G1 X11.000 Y-49.700
G1 X12.200 Y-49.700
G1 X15.800 Y-49.400
G1 X16.700 Y-48.500
G1 X17.600 Y-48.200
G1 X19.100 Y-47.300
G1 X19.700 Y-47.000
G1 X22.700 Y-44.300

G0 X26.600 Y-39.800

G1 X26.000 Y-40.700
G1 X26.000 Y-40.100
G1 X28.100 Y-37.400
G1 X28.700 Y-35.900
G1 X28.700 Y-35.300
G1 X29.000 Y-34.400
G1 X29.000 Y-35.600
G1 X28.100 Y-38.000
G1 X25.700 Y-41.300
G1 X24.500 Y-42.500
G1 X25.100 Y-41.300
G1 X25.700 Y-41.000
G1 X25.700 Y-40.400
G1 X26.300 Y-40.700
G1 X25.700 Y-40.100
G1 X27.800 Y-38.000
G1 X27.800 Y-37.100
G1 X28.400 Y-36.200
G1 X28.400 Y-35.000
G1 X30.200 Y-32.000
G1 X30.200 Y-32.900
G1 X29.300 Y-34.100
G1 X30.500 Y-28.400
G1 X30.500 Y-30.500

G0 X31.400 Y-28.100

G1 X31.400 Y-26.900
G1 X30.800 Y-27.800
G1 X30.800 Y-28.700
G1 X30.200 Y-27.800
G1 X30.800 Y-27.200
G1 X30.200 Y-25.700
G1 X30.200 Y-23.600
G1 X31.400 Y-24.500
G1 X31.100 Y-23.900
G1 X26.000 Y-20.000
G1 X26.000 Y-20.600
G1 X27.200 Y-20.600
G1 X26.000 Y-19.700
G1 X25.400 Y-20.000
G1 X22.400 Y-18.800
G1 X21.500 Y-18.500
G1 X21.200 Y-15.500
G1 X21.200 Y-14.000
G1 X21.500 Y-13.400
G1 X21.200 Y-12.800
G1 X21.500 Y-14.000
G1 X21.800 Y-15.500
G1 X21.800 Y-17.600
G1 X22.100 Y-18.200
G1 X20.300 Y-17.600
G1 X17.300 Y-14.000
G1 X17.600 Y-14.900
G1 X15.200 Y-20.000
G1 X17.000 Y-19.100
G1 X17.600 Y-17.600
G1 X16.400 Y-18.500
G1 X17.900 Y-18.200
G1 X18.200 Y-17.600

G0 X18.200 Y-16.700

G1 X17.900 Y-16.100
G1 X19.400 Y-15.200
G1 X18.500 Y-15.200
G1 X19.400 Y-12.500
G1 X19.400 Y-11.300
G1 X22.100 Y-13.100
G1 X21.800 Y-11.600
G1 X23.600 Y-8.900
G1 X24.800 Y-7.400
G1 X26.000 Y-4.400
G1 X26.600 Y-3.200
G1 X28.700 Y1.300
G1 X28.700 Y.400
G1 X27.200 Y-3.200
G1 X26.900 Y-4.100
G1 X26.300 Y-5.000
G1 X25.700 Y-4.700
G1 X25.400 Y-5.300
G1 X26.000 Y-5.600
G1 X23.600 Y-7.400
G1 X24.800 Y-5.900
G1 X24.500 Y-6.500
G1 X25.100 Y-7.100
G1 X21.500 Y-11.000
G1 X21.500 Y-12.500
G1 X22.100 Y-12.200
G1 X22.100 Y-11.600
G1 X21.500 Y-16.100
G1 X22.700 Y-19.100
G1 X23.600 Y-19.700
G1 X28.400 Y-22.400
G1 X30.800 Y-23.300
G1 X29.600 Y-22.700
G1 X29.300 Y-22.100
G1 X30.200 Y-22.700

G0 X30.500 Y-23.900

G1 X30.800 Y-24.500
G1 X29.300 Y-22.400
G1 X27.200 Y-21.200
G1 X27.800 Y-21.200
G1 X25.700 Y-20.000
G1 X24.800 Y-20.000
G1 X23.900 Y-19.400
G1 X24.800 Y-19.700
G1 X24.200 Y-20.000
G1 X22.700 Y-18.500
G1 X23.000 Y-19.100
G1 X22.400 Y-18.500
G1 X25.400 Y-19.700
G1 X30.800 Y-23.900
G1 X29.900 Y-32.600
G1 X29.300 Y-34.700
G1 X29.300 Y-33.200
G1 X30.800 Y-30.200
G1 X30.800 Y-26.300
G1 X31.100 Y-25.400
G1 X31.100 Y-24.500
G1 X30.800 Y-25.700
G1 X31.100 Y-26.300
G1 X31.100 Y-27.200

G0 X26.300 Y-20.600

G1 X26.900 Y-21.200
G1 X25.700 Y-20.300
G1 X25.100 Y-20.300
G1 X26.300 Y-20.900
G1 X27.800 Y-21.800
G1 X28.400 Y-21.500
G1 X29.300 Y-23.000
G1 X30.500 Y-24.200
G1 X30.500 Y-25.100
G1 X31.400 Y-26.000
G1 X31.400 Y-24.800
G1 X31.100 Y-29.000
G1 X30.500 Y-29.300
G1 X30.500 Y-31.400
G1 X29.900 Y-30.500
G1 X29.600 Y-31.700
G1 X29.000 Y-33.500
G1 X26.600 Y-40.400
G1 X26.300 Y-39.800
G1 X26.900 Y-40.100
G1 X20.000 Y-46.400
G1 X20.300 Y-45.500
G1 X18.500 Y-47.000
G1 X17.900 Y-47.000
G1 X14.300 Y-49.100

G0 X23.300 Y-57.800

G1 X23.900 Y-57.800
G1 X25.100 Y-56.900
G1 X26.600 Y-55.700
G1 X27.800 Y-55.100
G1 X30.500 Y-53.000
G1 X31.400 Y-52.100
G1 X29.000 Y-53.900
G1 X29.900 Y-53.900
G1 X31.400 Y-52.400
G1 X31.100 Y-51.800
G1 X32.000 Y-51.800
G1 X32.300 Y-51.200
G1 X20.900 Y-59.300
G1 X12.800 Y-61.700
G1 X7.700 Y-62.600
G1 X3.500 Y-62.600
G1 X-2.200 Y-62.000
G1 X-4.600 Y-60.800
G1 X-6.700 Y-60.200
G1 X-11.200 Y-59.300
G1 X-2.800 Y-62.000
G1 X-1.600 Y-61.700
G1 X-.100 Y-62.000

G0 X5.000 Y-62.900

G1 X5.600 Y-62.900
G1 X2.300 Y-62.900
G1 X1.100 Y-62.600
G1 X-.400 Y-62.600
G1 X-1.900 Y-62.300
G1 X-.100 Y-61.400
G1 X.200 Y-62.000
G1 X-.400 Y-61.700
G1 X-4.000 Y-60.800
G1 X-4.600 Y-61.100
G1 X-5.500 Y-60.800
G1 X-5.800 Y-60.200
G1 X-6.400 Y-60.500
G1 X-7.000 Y-60.500
G1 X-8.500 Y-59.600
G1 X-12.100 Y-58.700
G1 X-13.600 Y-57.800
G1 X-13.000 Y-57.800
G1 X-11.500 Y-58.400
G1 X-10.300 Y-59.300
G1 X-10.000 Y-58.700
G1 X-11.800 Y-59.000
G1 X-12.700 Y-58.700

G0 X7.400 Y-62.300

G1 X2.300 Y-62.300
G1 X1.700 Y-62.900
G1 X.200 Y-62.900
G1 X10.700 Y-62.900
G1 X9.200 Y-62.000
G1 X10.100 Y-62.000
G1 X13.100 Y-61.400
G1 X13.700 Y-62.000
G1 X15.500 Y-61.400
G1 X14.600 Y-60.800
G1 X15.200 Y-60.800
G1 X17.300 Y-60.200
G1 X18.200 Y-59.600
G1 X19.700 Y-59.300
G1 X20.300 Y-58.700
G1 X24.500 Y-57.800
G1 X25.700 Y-56.600
G1 X25.100 Y-56.600
G1 X29.300 Y-54.500
G1 X29.900 Y-53.600
G1 X29.300 Y-53.000

G0 X25.700 Y-56.600

G1 X26.300 Y-56.300
G1 X26.900 Y-55.700
G1 X28.100 Y-55.100
G1 X29.300 Y-54.200
G1 X28.400 Y-54.200
G1 X27.200 Y-55.100
G1 X28.100 Y-55.400
G1 X26.900 Y-56.000
G1 X25.400 Y-57.200
G1 X24.500 Y-56.900
G1 X23.900 Y-57.500
G1 X22.400 Y-58.700
G1 X21.500 Y-58.400
G1 X20.000 Y-59.300
G1 X20.900 Y-59.000
G1 X21.500 Y-59.300
G1 X15.800 Y-61.400
G1 X16.400 Y-60.800
G1 X17.600 Y-60.500
G1 X18.500 Y-59.600
G1 X19.100 Y-59.600
G1 X19.700 Y-60.200
G1 X11.000 Y-62.300
G1 X8.900 Y-62.600
G1 X7.700 Y-62.300

G0 X35.600 Y-42.800

G1 X36.800 Y-41.000
G1 X37.100 Y-40.400
G1 X38.000 Y-40.400
G1 X38.900 Y-39.800
G1 X39.500 Y-39.200
G1 X38.900 Y-39.500
G1 X37.700 Y-41.000
G1 X41.300 Y-38.000
G1 X40.100 Y-38.000
G1 X40.700 Y-38.900
G1 X42.200 Y-37.400
G1 X42.800 Y-36.500
G1 X45.200 Y-34.100
G1 X43.700 Y-34.700
G1 X41.000 Y-37.400
G1 X43.100 Y-35.000
G1 X44.600 Y-33.500
G1 X45.800 Y-32.600
G1 X45.200 Y-33.800
G1 X45.200 Y-33.200
G1 X44.600 Y-33.800

G0 X42.200 Y-36.800

G1 X41.600 Y-37.400
G1 X36.500 Y-42.800
G1 X35.900 Y-43.400
G1 X35.900 Y-42.500
G1 X36.800 Y-42.500
G1 X37.100 Y-41.600
G1 X39.200 Y-40.100
G1 X40.700 Y-38.600
G1 X40.100 Y-38.900
G1 X39.500 Y-39.500
G1 X39.800 Y-38.900
G1 X41.900 Y-37.400
G1 X42.800 Y-35.900
G1 X44.000 Y-34.700
G1 X44.300 Y-34.100
G1 X44.900 Y-33.800
G1 X43.400 Y-35.600
G1 X38.300 Y-39.800
G1 X36.500 Y-41.600
G1 X36.500 Y-42.200
G1 X37.100 Y-41.300
G1 X37.700 Y-40.700
G1 X39.200 Y-39.800
G1 X38.600 Y-39.800

G0 X40.100 Y-24.800

G1 X39.500 Y-25.100
G1 X39.200 Y-24.500
G1 X38.600 Y-24.800
G1 X36.800 Y-23.900
G1 X35.900 Y-23.300
G1 X35.300 Y-22.100
G1 X33.800 Y-21.200
G1 X34.700 Y-21.500
G1 X34.400 Y-22.100
G1 X35.000 Y-22.100
G1 X35.300 Y-22.700
G1 X35.900 Y-22.400
G1 X37.400 Y-23.300
G1 X38.300 Y-24.200
G1 X38.900 Y-24.500
G1 X41.000 Y-25.700
G1 X45.800 Y-26.600
G1 X45.200 Y-26.900
G1 X44.600 Y-26.600
G1 X47.300 Y-26.300
G1 X47.900 Y-27.500
G1 X48.800 Y-27.500
G1 X49.100 Y-26.900
G1 X49.700 Y-28.100
G1 X49.100 Y-28.100

G0 X49.100 Y-27.800

G1 X50.300 Y-28.100
G1 X50.900 Y-27.800
G1 X49.700 Y-27.200
G1 X47.300 Y-26.600
G1 X46.400 Y-26.600
G1 X41.600 Y-25.100
G1 X41.300 Y-25.700
G1 X40.700 Y-25.100
G1 X39.200 Y-24.800
G1 X37.700 Y-24.200
G1 X37.100 Y-23.300
G1 X35.900 Y-22.700
G1 X36.200 Y-23.300
G1 X39.800 Y-24.500
G1 X43.100 Y-26.000
G1 X44.000 Y-26.000
G1 X46.100 Y-26.900
G1 X48.500 Y-27.200
G1 X55.100 Y-29.300
G1 X57.500 Y-29.900
G1 X59.000 Y-30.500
G1 X63.500 Y-33.500
G1 X62.900 Y-33.200
G1 X67.100 Y-36.500
G1 X67.700 Y-37.100

G0 X66.200 Y-36.200

G1 X64.400 Y-33.800
G1 X62.900 Y-32.900
G1 X61.700 Y-31.700
G1 X59.900 Y-31.400
G1 X59.300 Y-30.800
G1 X58.700 Y-30.800
G1 X55.100 Y-28.400
G1 X53.600 Y-29.000
G1 X52.700 Y-28.700
G1 X51.500 Y-28.400
G1 X50.900 Y-27.500
G1 X51.500 Y-27.800
G1 X53.000 Y-28.400
G1 X53.900 Y-28.400
G1 X55.700 Y-29.000
G1 X59.600 Y-30.500
G1 X60.800 Y-32.000
G1 X62.300 Y-32.900
G1 X63.500 Y-34.100
G1 X64.100 Y-33.800
G1 X65.000 Y-35.000
G1 X66.500 Y-36.200
G1 X67.100 Y-36.800
G1 X69.200 Y-38.600
G1 X69.800 Y-39.200

G0 X70.400 Y-39.800

G1 X69.200 Y-38.300
G1 X68.000 Y-37.100
G1 X68.000 Y-38.000
G1 X71.900 Y-42.200
G1 X73.100 Y-44.000
G1 X73.100 Y-44.900
G1 X76.100 Y-50.300
G1 X77.900 Y-57.200
G1 X78.800 Y-58.700
G1 X79.400 Y-59.000
G1 X78.800 Y-59.900
G1 X79.700 Y-61.700
G1 X79.100 Y-59.900
G1 X78.500 Y-58.400
G1 X78.500 Y-57.500
G1 X77.900 Y-56.000
G1 X76.400 Y-52.700
G1 X75.800 Y-50.300
G1 X74.300 Y-47.300
G1 X73.700 Y-45.500
G1 X71.600 Y-42.200
G1 X70.700 Y-40.400
G1 X68.300 Y-38.000
G1 X68.900 Y-38.600

G0 X65.900 Y-35.300

G1 X65.300 Y-34.700
G1 X66.800 Y-35.900
G1 X66.200 Y-35.600
G1 X67.700 Y-36.800
G1 X67.700 Y-37.700
G1 X65.900 Y-36.200
G1 X61.700 Y-32.000
G1 X60.500 Y-31.100
G1 X59.900 Y-30.500
G1 X59.300 Y-31.100
G1 X59.900 Y-31.700
G1 X62.900 Y-33.800
G1 X62.000 Y-32.900
G1 X60.800 Y-31.100
G1 X60.200 Y-30.500
G1 X58.100 Y-29.600
G1 X56.300 Y-29.000
G1 X55.700 Y-29.600
G1 X55.100 Y-29.000
G1 X53.900 Y-28.700
G1 X54.500 Y-28.400
G1 X58.400 Y-30.800
G1 X59.300 Y-31.400

G0 X23.300 Y-8.000

G1 X24.200 Y-7.100
G1 X23.900 Y-7.700
G1 X22.100 Y-10.100
G1 X21.800 Y-11.300
G1 X23.000 Y-9.200
G1 X24.200 Y-7.700
G1 X25.100 Y-5.600
G1 X26.000 Y-5.300
G1 X26.900 Y-3.200
G1 X27.500 Y-1.400
G1 X28.100 Y-.500
G1 X29.900 Y7.000
G1 X30.500 Y9.100
G1 X30.500 Y9.700
G1 X30.800 Y10.900
G1 X31.100 Y11.800
G1 X31.100 Y13.600
G1 X32.000 Y18.100
G1 X32.000 Y20.200
G1 X32.600 Y22.900
G1 X32.600 Y25.300
G1 X31.700 Y29.200
G1 X32.300 Y35.500
G1 X32.600 Y34.300
G1 X33.200 Y36.700
G1 X33.200 Y37.300
G1 X33.500 Y38.800
G1 X33.500 Y41.200
G1 X33.200 Y43.900
G1 X33.200 Y43.300

G0 X32.000 Y43.000

G1 X32.900 Y43.600
G1 X33.800 Y42.100
G1 X33.800 Y40.300
G1 X30.200 Y43.000
G1 X29.900 Y42.400
G1 X29.000 Y43.300
G1 X30.200 Y39.700
G1 X30.800 Y40.000
G1 X31.400 Y35.500
G1 X32.300 Y33.100
G1 X32.300 Y30.100
G1 X29.300 Y32.200
G1 X29.600 Y33.400
G1 X29.000 Y33.400
G1 X28.400 Y33.700
G1 X28.100 Y27.100
G1 X27.800 Y28.000
G1 X27.800 Y27.100
G1 X31.400 Y31.900
G1 X31.100 Y33.700
G1 X30.200 Y35.200
G1 X30.800 Y28.900
G1 X30.200 Y27.700
G1 X29.600 Y28.000

G0 X29.900 Y27.700

G1 X32.600 Y23.500
G1 X32.600 Y25.600
G1 X31.700 Y25.300
G1 X32.000 Y26.200
G1 X32.300 Y27.400
G1 X30.500 Y28.900
G1 X30.500 Y29.800
G1 X30.800 Y30.700
G1 X30.800 Y31.900
G1 X31.400 Y31.600
G1 X31.400 Y31.000
G1 X29.600 Y30.700
G1 X29.600 Y30.100
G1 X29.900 Y29.500
G1 X29.600 Y28.600
G1 X30.200 Y29.200
G1 X30.800 Y32.800
G1 X30.800 Y35.500
G1 X30.200 Y37.900
G1 X29.300 Y37.900
G1 X30.800 Y38.800
G1 X30.200 Y38.500

G0 X29.900 Y38.500

G1 X29.300 Y39.700
G1 X28.100 Y41.500
G1 X27.800 Y40.900
G1 X27.200 Y41.200
G1 X26.300 Y43.300
G1 X27.200 Y41.800
G1 X27.500 Y42.700
G1 X33.500 Y44.200
G1 X33.200 Y41.200
G1 X33.200 Y38.800
G1 X35.000 Y34.300
G1 X33.200 Y27.100
G1 X32.600 Y26.200
G1 X32.600 Y26.800
G1 X34.100 Y29.500
G1 X33.800 Y30.400
G1 X34.400 Y30.100
G1 X34.400 Y31.300
G1 X34.700 Y31.900
G1 X34.700 Y32.500
G1 X34.400 Y33.100
G1 X34.400 Y35.200
G1 X35.300 Y38.800
G1 X35.300 Y41.200

G0 X35.000 Y42.400

G1 X33.500 Y44.500
G1 X34.400 Y36.400
G1 X35.300 Y35.800
G1 X35.300 Y36.400
G1 X32.900 Y38.500
G1 X31.400 Y34.300
G1 X30.200 Y32.800
G1 X29.900 Y33.400
G1 X29.600 Y31.000
G1 X32.300 Y33.700
G1 X32.900 Y34.600
G1 X32.300 Y35.800
G1 X32.900 Y36.400
G1 X31.400 Y38.500
G1 X31.700 Y39.100
G1 X27.800 Y43.900
G1 X28.400 Y44.800
G1 X29.000 Y44.500
G1 X28.700 Y45.100
G1 X27.800 Y46.000
G1 X28.700 Y46.000
G1 X28.700 Y46.600
G1 X31.700 Y44.200
G1 X29.900 Y43.600
G1 X29.900 Y44.200

G0 X30.200 Y43.900

G1 X29.600 Y44.200
G1 X29.300 Y45.400
G1 X28.700 Y44.500
G1 X32.000 Y42.400
G1 X30.800 Y45.700
G1 X31.100 Y49.000
G1 X31.400 Y50.500
G1 X31.100 Y51.700
G1 X30.200 Y51.700
G1 X28.700 Y56.800
G1 X27.800 Y55.300
G1 X26.600 Y57.700
G1 X27.200 Y55.900
G1 X28.100 Y54.700
G1 X28.100 Y55.300
G1 X29.600 Y52.600
G1 X31.400 Y51.700
G1 X30.800 Y49.600
G1 X27.200 Y52.300
G1 X27.500 Y51.400
G1 X28.700 Y48.400
G1 X29.900 Y47.200
G1 X29.600 Y48.100
G1 X29.000 Y49.300
G1 X29.600 Y49.600

G0 X30.200 Y49.000

G1 X32.900 Y51.100
G1 X28.100 Y57.400
G1 X29.300 Y57.400
G1 X29.600 Y58.000
G1 X29.900 Y57.100
G1 X31.100 Y55.300
G1 X32.000 Y53.200
G1 X29.000 Y56.500
G1 X27.800 Y55.900
G1 X25.700 Y56.800
G1 X25.100 Y55.600
G1 X24.500 Y56.800
G1 X23.300 Y55.300
G1 X22.400 Y55.300
G1 X22.700 Y54.700
G1 X21.500 Y55.600
G1 X20.600 Y57.100
G1 X21.200 Y58.000
G1 X20.600 Y61.900
G1 X19.100 Y61.600
G1 X19.100 Y63.700
G1 X19.700 Y62.500
G1 X20.300 Y62.200

G0 X18.800 Y62.200

G1 X18.800 Y66.400
G1 X18.500 Y65.800
G1 X18.500 Y64.600
G1 X23.000 Y64.900
G1 X24.200 Y63.700
G1 X26.600 Y60.700
G1 X26.000 Y60.700
G1 X25.100 Y62.200
G1 X24.500 Y62.800
G1 X24.200 Y63.400
G1 X23.600 Y64.000
G1 X22.400 Y64.600
G1 X28.400 Y58.600
G1 X28.400 Y59.200
G1 X29.900 Y56.800
G1 X28.700 Y57.100
G1 X29.000 Y58.000
G1 X26.300 Y57.100
G1 X27.500 Y56.500
G1 X27.200 Y57.100
G1 X28.400 Y55.600
G1 X25.400 Y55.900
G1 X26.000 Y55.000
G1 X25.400 Y54.700
G1 X24.800 Y55.000
G1 X23.300 Y50.200
G1 X23.900 Y49.600
G1 X24.800 Y50.800
G1 X23.900 Y51.100
G1 X22.100 Y52.000
G1 X23.000 Y50.800
G1 X23.000 Y51.400
G1 X23.900 Y53.200
G1 X23.600 Y54.100
G1 X24.200 Y53.800

G0 X23.600 Y52.000

G1 X23.600 Y51.100
G1 X22.100 Y53.200
G1 X21.800 Y52.600
G1 X23.600 Y52.900
G1 X23.300 Y55.000
G1 X25.700 Y54.100
G1 X26.300 Y54.700
G1 X25.700 Y54.400
G1 X26.600 Y53.800
G1 X26.900 Y52.000
G1 X26.600 Y51.400
G1 X27.200 Y51.700
G1 X26.900 Y51.100
G1 X26.000 Y54.100
G1 X25.100 Y53.500
G1 X26.000 Y55.300
G1 X24.500 Y57.100
G1 X24.500 Y58.300
G1 X23.900 Y58.900
G1 X24.200 Y59.500
G1 X23.900 Y58.300
G1 X24.800 Y58.000
G1 X25.100 Y55.900
G1 X29.600 Y50.200
G1 X30.500 Y47.800
G1 X30.500 Y46.300
G1 X29.300 Y49.900
G1 X29.300 Y50.800

G0 X28.100 Y49.600

G1 X25.400 Y53.500
G1 X24.800 Y54.100
G1 X23.000 Y55.000
G1 X22.700 Y56.200
G1 X19.700 Y58.300
G1 X19.400 Y56.500
G1 X19.400 Y55.000
G1 X23.900 Y44.500
G1 X22.700 Y46.300
G1 X20.000 Y49.300
G1 X18.800 Y50.200
G1 X20.300 Y49.600
G1 X21.200 Y48.400
G1 X22.100 Y47.800
G1 X22.400 Y47.200
G1 X23.000 Y46.300
G1 X23.300 Y45.700
G1 X23.300 Y46.300
G1 X22.100 Y47.200
G1 X20.600 Y48.700
G1 X19.700 Y50.200
G1 X17.300 Y51.700
G1 X18.200 Y51.700
G1 X16.100 Y52.900
G1 X12.500 Y60.400
G1 X12.500 Y59.800

G0 X13.100 Y60.100

G1 X12.500 Y59.200
G1 X12.200 Y59.800
G1 X14.000 Y63.100
G1 X13.100 Y62.800
G1 X14.000 Y63.700
G1 X13.700 Y63.100
G1 X15.800 Y59.500
G1 X16.100 Y60.100
G1 X13.100 Y65.800
G1 X14.300 Y67.300
G1 X14.600 Y66.700
G1 X14.300 Y67.900
G1 X11.000 Y72.100
G1 X11.000 Y71.500
G1 X8.000 Y74.500
G1 X7.400 Y74.800
G1 X3.800 Y75.400
G1 X2.300 Y75.100
G1 X2.900 Y74.200
G1 X2.900 Y72.700
G1 X2.300 Y74.800
G1 X.500 Y69.100
G1 X-.100 Y67.600
G1 X-.700 Y68.200

G0 X-.700 Y67.300

G1 X-.700 Y65.800
G1 X-.400 Y66.400
G1 X-.400 Y68.200
G1 X-.700 Y67.600
G1 X-.700 Y67.000
G1 X-1.300 Y64.900
G1 X-.400 Y65.800
G1 X1.100 Y63.700
G1 X.800 Y66.100
G1 X1.400 Y67.300
G1 X1.100 Y68.200
G1 X2.000 Y69.700
G1 X1.700 Y70.600
G1 X2.900 Y71.500
G1 X2.600 Y72.400
G1 X.500 Y66.700
G1 X.200 Y70.900
G1 X.800 Y72.700
G1 X.800 Y76.000
G1 X-1.000 Y76.600
G1 X-1.600 Y73.300
G1 X-4.900 Y72.100
G1 X-4.300 Y70.300
G1 X-6.100 Y72.700

G0 X-4.600 Y71.800

G1 X-5.200 Y71.200
G1 X-7.900 Y69.400
G1 X-7.900 Y70.000
G1 X-7.000 Y70.300
G1 X-7.600 Y73.000
G1 X-7.000 Y72.100
G1 X-7.000 Y73.900
G1 X-7.300 Y75.100
G1 X-5.800 Y72.700
G1 X-5.500 Y73.600
G1 X-6.100 Y73.900
G1 X-3.400 Y73.600
G1 X-4.000 Y72.700
G1 X-4.000 Y73.300
G1 X-4.300 Y72.700
G1 X-3.400 Y71.200
G1 X-3.100 Y72.400
G1 X-3.700 Y72.700
G1 X-1.600 Y75.400
G1 X-1.600 Y74.200
G1 X-1.000 Y73.600
G1 X-1.600 Y72.400
G1 X-1.600 Y71.500
G1 X-1.900 Y70.900
G1 X2.000 Y70.300

G0 X3.200 Y69.700

G1 X3.200 Y69.100
G1 X3.500 Y69.700
G1 X3.500 Y70.900
G1 X2.600 Y69.700
G1 X2.300 Y70.900
G1 X2.900 Y70.600
G1 X3.500 Y69.100
G1 X3.200 Y67.600
G1 X5.000 Y70.600
G1 X5.000 Y68.500
G1 X4.400 Y69.100
G1 X5.300 Y65.500
G1 X6.200 Y64.900
G1 X6.800 Y62.500
G1 X7.400 Y63.400
G1 X8.300 Y66.400
G1 X9.500 Y65.800
G1 X9.500 Y67.000
G1 X9.800 Y68.500
G1 X9.800 Y70.900
G1 X8.600 Y71.500
G1 X10.400 Y70.000
G1 X10.700 Y68.800
G1 X11.000 Y68.200
G1 X10.700 Y67.600
G1 X11.000 Y66.100

G0 X11.300 Y65.500

G1 X12.500 Y65.800
G1 X12.200 Y66.400
G1 X11.000 Y65.800
G1 X11.600 Y63.400
G1 X11.600 Y62.500
G1 X11.000 Y61.600
G1 X10.400 Y62.200
G1 X10.400 Y63.700
G1 X10.100 Y67.600
G1 X10.100 Y62.800
G1 X11.000 Y63.100
G1 X11.000 Y62.200
G1 X11.900 Y59.500
G1 X13.700 Y57.400
G1 X14.300 Y56.500
G1 X14.300 Y60.100
G1 X13.400 Y61.300
G1 X12.800 Y61.600
G1 X11.900 Y60.400
G1 X13.700 Y58.900
G1 X11.000 Y55.000
G1 X13.400 Y51.700
G1 X14.300 Y51.100
G1 X11.900 Y52.300

G0 X11.900 Y52.000

G1 X15.500 Y48.700
G1 X16.100 Y49.600
G1 X17.300 Y48.700
G1 X17.900 Y48.100
G1 X18.800 Y47.800
G1 X20.000 Y45.700
G1 X19.700 Y44.200
G1 X20.300 Y43.000
G1 X20.900 Y42.400
G1 X20.600 Y43.000
G1 X20.000 Y43.900
G1 X20.300 Y44.800
G1 X21.200 Y43.600
G1 X19.100 Y47.800
G1 X15.200 Y50.500
G1 X14.900 Y49.900
G1 X15.200 Y49.300
G1 X13.700 Y51.100
G1 X12.500 Y51.700
G1 X15.200 Y53.500
G1 X13.400 Y55.600
G1 X10.400 Y55.900
G1 X9.800 Y56.500
G1 X10.400 Y56.200
G1 X11.000 Y56.800

G0 X11.600 Y54.400

G1 X12.200 Y53.800
G1 X11.900 Y54.400
G1 X13.400 Y53.200
G1 X13.700 Y53.800
G1 X13.700 Y55.000
G1 X14.300 Y54.100
G1 X18.800 Y49.900
G1 X19.100 Y50.500
G1 X18.800 Y52.000
G1 X19.400 Y51.100
G1 X20.000 Y52.600
G1 X18.500 Y52.300
G1 X18.200 Y54.400
G1 X17.000 Y55.600
G1 X17.300 Y54.700
G1 X17.300 Y54.100
G1 X17.900 Y52.300
G1 X13.700 Y51.700
G1 X13.700 Y52.300
G1 X13.100 Y51.700
G1 X19.100 Y46.900
G1 X19.400 Y45.100
G1 X19.700 Y45.700
G1 X22.700 Y48.700
G1 X20.300 Y48.100

G0 X21.500 Y48.700

G1 X20.900 Y50.200
G1 X23.300 Y52.300
G1 X22.700 Y53.200
G1 X23.000 Y52.300
G1 X21.500 Y53.500
G1 X21.500 Y52.900
G1 X20.900 Y52.900
G1 X20.000 Y54.400
G1 X20.900 Y52.600
G1 X24.200 Y51.400
G1 X24.200 Y52.000
G1 X25.400 Y50.500
G1 X26.000 Y49.900
G1 X26.900 Y47.500
G1 X27.800 Y47.200
G1 X28.400 Y46.600
G1 X28.100 Y47.200
G1 X25.700 Y45.700
G1 X24.200 Y44.200
G1 X23.600 Y43.900
G1 X24.800 Y43.300
G1 X22.700 Y48.100
G1 X21.800 Y49.900
G1 X22.100 Y49.300

G0 X23.600 Y49.600

G1 X24.200 Y48.700
G1 X25.100 Y49.000
G1 X24.800 Y47.800
G1 X25.400 Y46.300
G1 X23.600 Y47.800
G1 X23.000 Y48.400
G1 X23.300 Y47.500
G1 X26.000 Y45.400
G1 X26.000 Y44.800
G1 X26.600 Y44.200
G1 X26.000 Y43.900
G1 X28.400 Y40.900
G1 X26.300 Y40.000
G1 X25.700 Y40.300
G1 X25.400 Y41.500
G1 X24.200 Y39.700
G1 X24.200 Y40.300
G1 X21.200 Y40.600
G1 X22.100 Y41.800
G1 X21.200 Y42.700
G1 X21.800 Y43.300
G1 X22.400 Y43.600
G1 X22.100 Y43.000
G1 X23.300 Y42.700
G1 X23.900 Y42.700

G0 X24.500 Y41.200

G1 X23.900 Y42.100
G1 X23.000 Y42.100
G1 X21.200 Y40.300
G1 X18.500 Y40.300
G1 X19.100 Y40.000
G1 X18.200 Y41.200
G1 X19.700 Y41.200
G1 X15.500 Y39.700
G1 X15.800 Y38.800
G1 X17.900 Y39.100
G1 X15.800 Y38.200
G1 X14.600 Y39.100
G1 X14.300 Y38.200
G1 X11.900 Y39.700
G1 X8.600 Y39.700
G1 X8.600 Y38.800
G1 X14.000 Y41.800
G1 X14.900 Y41.500
G1 X15.800 Y41.500
G1 X16.700 Y40.300
G1 X17.300 Y41.200
G1 X17.900 Y41.500
G1 X18.200 Y40.900
G1 X17.300 Y41.500

G0 X20.900 Y40.600

G1 X20.000 Y40.900
G1 X19.400 Y40.600
G1 X21.200 Y40.900
G1 X17.300 Y42.100
G1 X14.900 Y40.600
G1 X16.100 Y40.900
G1 X14.000 Y39.400
G1 X14.900 Y39.700
G1 X13.400 Y40.600
G1 X21.800 Y39.400
G1 X22.400 Y38.800
G1 X20.300 Y39.100
G1 X16.700 Y43.600
G1 X16.700 Y44.200
G1 X16.100 Y45.700
G1 X16.400 Y47.500
G1 X16.100 Y48.400
G1 X15.500 Y49.000
G1 X15.800 Y50.200
G1 X15.500 Y50.800
G1 X13.700 Y50.200
G1 X16.100 Y47.800
G1 X15.800 Y48.400
G1 X15.200 Y49.000
G1 X14.600 Y49.900

G0 X13.700 Y52.000

G1 X13.400 Y52.900
G1 X11.000 Y56.500
G1 X9.800 Y58.600
G1 X9.500 Y58.000
G1 X10.400 Y56.500
G1 X11.600 Y55.000
G1 X12.500 Y53.800
G1 X11.900 Y52.600
G1 X14.300 Y50.200
G1 X14.600 Y49.600
G1 X13.100 Y51.100
G1 X14.300 Y52.000
G1 X16.100 Y50.500
G1 X16.400 Y49.600
G1 X14.300 Y51.700
G1 X12.800 Y54.100
G1 X11.300 Y55.600
G1 X9.200 Y58.900
G1 X9.200 Y60.700
G1 X6.500 Y64.900
G1 X7.700 Y63.700
G1 X7.100 Y62.200
G1 X6.200 Y62.500
G1 X5.900 Y59.800
G1 X6.200 Y58.900
G1 X6.200 Y60.400
G1 X6.800 Y61.300
G1 X6.500 Y62.200
G1 X6.800 Y60.400
G1 X3.500 Y55.300
G1 X3.500 Y54.400
G1 X2.000 Y52.300
G1 X2.600 Y53.500
G1 X4.700 Y56.200
G1 X4.100 Y58.300
G1 X5.300 Y55.900
G1 X2.300 Y63.400
G1 X1.400 Y61.900
G1 X1.400 Y61.000
G1 X3.500 Y64.900
G1 X3.500 Y64.300
G1 X4.100 Y63.700

G0 X4.100 Y64.000

G1 X3.800 Y64.600
G1 X3.500 Y65.500
G1 X3.500 Y66.400
G1 X3.200 Y65.800
G1 X2.900 Y68.500
G1 X3.200 Y71.200
G1 X2.300 Y73.900
G1 X2.300 Y72.100
G1 X2.900 Y71.200
G1 X2.000 Y68.800
G1 X.800 Y63.400
G1 X1.100 Y60.100
G1 X.200 Y59.200
G1 X-.100 Y58.300
G1 X-.700 Y58.000
G1 X-1.300 Y57.100
G1 X-1.000 Y56.500
G1 X-2.200 Y54.700
G1 X-3.100 Y53.200
G1 X-3.400 Y53.800
G1 X-2.800 Y54.400
G1 X-2.200 Y55.600
G1 X-1.600 Y55.900
G1 X-1.900 Y55.300

G0 X-1.600 Y55.300

G1 X-1.900 Y54.700
G1 X-1.600 Y55.300
G1 X-2.200 Y55.000
G1 X-3.400 Y54.100
G1 X-4.000 Y55.600
G1 X-3.400 Y57.700
G1 X-3.100 Y57.100
G1 X-1.600 Y60.400
G1 X-1.000 Y61.600
G1 X-.700 Y62.500
G1 X-.100 Y63.400
G1 X-2.200 Y64.000
G1 X-3.100 Y62.800
G1 X-3.700 Y64.000
G1 X-3.400 Y65.200
G1 X-3.100 Y67.900
G1 X-4.900 Y67.600
G1 X-5.500 Y67.000
G1 X-3.400 Y67.600
G1 X-4.000 Y66.100
G1 X-1.000 Y67.000
G1 X-1.000 Y69.100
G1 X1.100 Y71.800
G1 X.500 Y72.400
G1 X.500 Y73.300

G0 X1.700 Y73.900

G1 X2.000 Y73.300
G1 X1.700 Y71.200
G1 X1.100 Y69.400
G1 X3.500 Y71.200
G1 X3.200 Y71.800
G1 X5.000 Y70.900
G1 X3.800 Y69.400
G1 X4.400 Y67.600
G1 X8.300 Y65.800
G1 X9.800 Y65.200
G1 X9.800 Y63.400
G1 X8.300 Y62.500
G1 X6.800 Y63.400
G1 X7.100 Y64.300
G1 X7.400 Y64.900
G1 X7.100 Y67.000
G1 X7.400 Y68.500
G1 X6.800 Y69.400
G1 X5.900 Y69.100
G1 X5.600 Y68.200
G1 X8.000 Y70.000
G1 X7.400 Y70.600
G1 X6.800 Y71.500
G1 X6.200 Y72.100
G1 X5.600 Y71.800

G0 X5.900 Y70.900

G1 X6.500 Y71.200
G1 X5.900 Y71.800
G1 X3.500 Y70.000
G1 X4.100 Y69.400
G1 X4.700 Y69.700
G1 X3.800 Y70.000
G1 X2.900 Y67.300
G1 X2.900 Y66.700
G1 X4.700 Y67.300
G1 X4.100 Y67.300
G1 X4.400 Y68.200
G1 X5.600 Y67.300
G1 X6.200 Y67.000
G1 X5.600 Y66.700
G1 X12.200 Y72.100
G1 X12.200 Y70.900
G1 X13.100 Y71.500
G1 X14.000 Y70.900
G1 X13.700 Y69.700
G1 X13.100 Y70.300
G1 X12.800 Y70.900
G1 X13.400 Y70.300
G1 X13.100 Y71.200
G1 X14.300 Y70.000
G1 X14.000 Y68.500
G1 X14.000 Y67.600

G0 X14.000 Y64.600

G1 X14.000 Y66.400
G1 X13.400 Y69.100
G1 X11.600 Y68.800
G1 X11.900 Y67.600
G1 X8.600 Y73.600
G1 X8.600 Y72.700
G1 X9.200 Y73.000
G1 X12.800 Y72.700
G1 X13.100 Y71.800
G1 X16.700 Y69.700
G1 X15.800 Y66.100
G1 X15.500 Y65.500
G1 X15.500 Y67.300
G1 X16.100 Y68.500
G1 X15.200 Y68.800
G1 X15.800 Y68.200
G1 X12.500 Y63.400
G1 X12.500 Y64.000
G1 X9.800 Y63.100
G1 X10.400 Y61.600
G1 X9.800 Y62.500
G1 X10.100 Y61.300
G1 X11.600 Y60.700
G1 X13.100 Y62.200

G0 X14.300 Y61.300

G1 X16.400 Y57.100
G1 X17.300 Y56.800
G1 X15.800 Y58.900
G1 X15.500 Y58.300
G1 X16.100 Y56.200
G1 X16.700 Y61.600
G1 X16.400 Y62.500
G1 X15.800 Y67.000
G1 X16.100 Y66.400
G1 X15.800 Y65.500
G1 X16.700 Y64.300
G1 X16.700 Y64.900
G1 X16.100 Y62.200
G1 X10.700 Y60.100
G1 X10.700 Y66.400
G1 X10.100 Y69.700
G1 X14.000 Y61.600
G1 X12.800 Y62.800
G1 X12.800 Y63.700
G1 X12.500 Y64.300
G1 X12.800 Y64.900
G1 X11.300 Y67.900
G1 X11.300 Y68.500
G1 X11.600 Y67.900
G1 X11.900 Y67.000
G1 X14.300 Y64.000
G1 X13.400 Y63.700
G1 X12.800 Y62.200
G1 X11.000 Y60.400
G1 X12.200 Y59.500
G1 X12.200 Y60.400
G1 X11.300 Y59.800
G1 X12.500 Y57.100
G1 X11.900 Y58.000
G1 X12.500 Y56.500
G1 X15.200 Y54.400
G1 X14.600 Y54.400
G1 X14.900 Y55.000
G1 X14.300 Y56.200
G1 X13.700 Y56.800
G1 X14.000 Y58.000
G1 X13.400 Y58.900
G1 X12.800 Y60.400
G1 X12.500 Y59.500
G1 X13.400 Y58.000
G1 X12.800 Y57.100
G1 X12.800 Y56.500
G1 X10.700 Y54.400
G1 X10.700 Y57.700
G1 X8.600 Y60.100
G1 X9.800 Y57.100
G1 X10.100 Y56.500
G1 X9.500 Y57.400
G1 X9.200 Y67.000
G1 X8.600 Y68.500
G1 X8.900 Y66.400
G1 X8.600 Y67.000
G1 X1.100 Y61.000
G1 X-.100 Y58.000
G1 X-1.300 Y56.500
G1 X-1.600 Y57.100

G0 X-1.900 Y56.500

G1 X-1.300 Y56.200
G1 X-2.200 Y56.200
G1 X-2.800 Y55.000
G1 X-3.100 Y53.800
G1 X-2.200 Y54.400
G1 X-2.800 Y53.200
G1 X-3.400 Y52.600
G1 X-4.000 Y53.200
G1 X-3.400 Y52.900
G1 X-4.000 Y52.000
G1 X-5.200 Y51.100
G1 X-4.900 Y52.000
G1 X-4.300 Y52.600
G1 X-4.300 Y52.000
G1 X-4.900 Y51.100
G1 X-5.800 Y50.500
G1 X-7.300 Y48.700
G1 X-7.300 Y48.100
G1 X-10.600 Y45.400
G1 X-12.100 Y43.900
G1 X-11.500 Y43.300
G1 X-10.900 Y43.900
G1 X-9.400 Y45.700
G1 X-8.800 Y46.300
G1 X-8.500 Y46.900

G0 X-8.500 Y47.200

G1 X-6.400 Y49.300
G1 X-5.500 Y51.100
G1 X-6.700 Y49.600
G1 X-8.200 Y48.100
G1 X-8.800 Y46.600
G1 X-9.400 Y46.000
G1 X-10.000 Y45.100
G1 X-10.600 Y44.500
G1 X-10.300 Y45.400
G1 X-9.400 Y46.600
G1 X-8.200 Y47.200
G1 X-8.500 Y48.100
G1 X-9.400 Y46.900
G1 X-11.800 Y43.300
G1 X-12.400 Y43.600
G1 X-13.900 Y40.300
G1 X-12.400 Y40.600
G1 X-12.100 Y40.000
G1 X-10.900 Y40.300
G1 X-10.000 Y41.500
G1 X-9.400 Y41.800
G1 X-7.000 Y40.000
G1 X-8.800 Y39.400

G0 X-8.500 Y40.600

G1 X-7.900 Y40.000
G1 X-10.900 Y40.600
G1 X-10.300 Y39.700
G1 X-11.500 Y40.300
G1 X-12.400 Y40.000
G1 X-10.600 Y41.500
G1 X-10.000 Y41.800
G1 X-12.400 Y39.100
G1 X-13.300 Y41.500
G1 X-13.600 Y40.600
G1 X-14.200 Y40.300
G1 X-13.900 Y40.900
G1 X-15.400 Y40.000
G1 X-17.500 Y40.000
G1 X-17.800 Y40.600
G1 X-18.400 Y40.300
G1 X-17.500 Y39.700
G1 X-16.900 Y39.700
G1 X-13.600 Y40.000
G1 X-12.100 Y43.300
G1 X-11.200 Y44.500
G1 X-11.500 Y43.600
G1 X-10.300 Y45.100
G1 X-8.800 Y47.200
G1 X-5.500 Y50.500
G1 X-4.600 Y52.000
G1 X-3.100 Y53.500
G1 X-4.000 Y52.300
G1 X-4.000 Y52.900
G1 X-2.500 Y54.400
G1 X-1.300 Y56.800
G1 X-.700 Y57.400
G1 X2.000 Y64.600
G1 X2.000 Y64.000

G0 X2.000 Y63.700

G1 X2.300 Y64.300
G1 X2.000 Y65.500
G1 X1.700 Y66.400
G1 X5.300 Y68.500
G1 X5.300 Y73.300
G1 X5.900 Y72.100
G1 X5.600 Y71.200
G1 X6.500 Y69.100
G1 X6.500 Y68.500
G1 X6.800 Y67.900
G1 X8.900 Y68.800
G1 X8.000 Y69.400
G1 X8.600 Y69.400
G1 X6.800 Y70.600
G1 X6.200 Y69.400
G1 X7.100 Y70.600
G1 X6.500 Y71.500
G1 X6.200 Y70.900
G1 X4.700 Y66.400
G1 X5.300 Y66.700
G1 X6.800 Y64.900
G1 X6.500 Y65.500
G1 X5.300 Y64.900
G1 X6.200 Y64.600
G1 X5.900 Y64.000

G0 X5.000 Y65.200

G1 X5.300 Y65.800
G1 X5.300 Y66.400
G1 X4.400 Y66.100
G1 X3.800 Y67.300
G1 X3.500 Y66.700
G1 X2.600 Y66.400
G1 X7.100 Y60.400
G1 X4.100 Y55.900
G1 X2.000 Y52.600
G1 X2.600 Y52.600
G1 X2.900 Y53.800
G1 X2.900 Y52.900
G1 X5.000 Y57.100
G1 X5.300 Y56.500
G1 X5.600 Y55.600
G1 X6.200 Y55.000
G1 X5.900 Y54.400
G1 X6.800 Y52.600
G1 X6.500 Y53.800
G1 X3.800 Y58.300
G1 X3.800 Y58.900
G1 X2.300 Y62.200
G1 X1.400 Y62.500
G1 X1.700 Y63.400
G1 X2.300 Y63.700

G0 X2.000 Y61.900

G1 X1.400 Y61.600
G1 X.200 Y61.300
G1 X1.100 Y59.500
G1 X.500 Y58.900
G1 X1.100 Y59.200
G1 X2.000 Y57.700
G1 X1.100 Y57.100
G1 X1.700 Y56.800
G1 X1.400 Y55.900
G1 X.500 Y55.600
G1 X4.100 Y60.100
G1 X4.400 Y62.500
G1 X3.500 Y61.900
G1 X2.900 Y62.800
G1 X2.000 Y63.400
G1 X1.700 Y62.800
G1 X1.100 Y63.400
G1 X1.700 Y63.700
G1 X.500 Y62.200
G1 X.500 Y63.100
G1 X-.100 Y62.200
G1 X-.700 Y61.600
G1 X.500 Y61.900
G1 X1.100 Y61.300
G1 X1.700 Y61.900

G0 X2.600 Y61.900

G1 X1.400 Y60.700
G1 X.500 Y60.100
G1 X.200 Y59.500
G1 X-.700 Y58.300
G1 X-1.300 Y57.400
G1 X-.700 Y56.800
G1 X-.400 Y57.700
G1 X-1.000 Y57.400
G1 X-.400 Y58.300
G1 X4.400 Y63.400
G1 X4.700 Y62.200
G1 X2.900 Y61.300
G1 X4.100 Y59.500
G1 X3.500 Y61.300
G1 X3.200 Y61.900
G1 X4.700 Y63.100
G1 X2.900 Y64.300
G1 X2.000 Y63.700
G1 X2.900 Y63.400
G1 X1.400 Y64.600
G1 X-.700 Y61.900
G1 X-.400 Y62.500
G1 X.800 Y64.600
G1 X.500 Y65.200

G0 X.500 Y66.100

G1 X.500 Y65.500
G1 X1.400 Y66.100
G1 X1.100 Y69.100
G1 X1.700 Y68.200
G1 X1.400 Y67.600
G1 X-.700 Y66.400
G1 X-1.600 Y67.000
G1 X-1.600 Y64.000
G1 X-1.000 Y64.300
G1 X-.400 Y65.500
G1 X.500 Y63.700
G1 X-1.000 Y65.500
G1 X.200 Y67.900
G1 X-.400 Y68.800
G1 X-.400 Y69.400
G1 X-.700 Y70.000
G1 X1.100 Y71.500
G1 X1.100 Y75.100
G1 X-1.600 Y79.900
G1 X-3.100 Y79.300
G1 X-4.300 Y80.800
G1 X-4.900 Y80.800
G1 X-3.400 Y81.100
G1 X-2.800 Y81.100

G0 X-4.000 Y79.000

G1 X-3.400 Y78.700
G1 X-3.100 Y78.100
G1 X-4.300 Y78.100
G1 X-4.300 Y77.500
G1 X-9.400 Y78.400
G1 X-4.900 Y78.400
G1 X-4.900 Y79.000
G1 X-2.800 Y80.200
G1 X-4.000 Y80.800
G1 X-2.500 Y80.800
G1 X-1.900 Y80.500
G1 X-3.700 Y79.000
G1 X-2.800 Y78.700
G1 X-1.300 Y77.800
G1 X-2.500 Y77.800
G1 X-1.600 Y77.200
G1 X-1.600 Y75.700
G1 X-4.600 Y73.900
G1 X-5.500 Y71.200
G1 X-5.200 Y70.000
G1 X-6.700 Y69.400
G1 X-7.600 Y68.500
G1 X-7.300 Y69.100

G0 X-6.700 Y68.200

G1 X-6.700 Y67.600
G1 X-7.000 Y65.500
G1 X-7.000 Y64.300
G1 X-8.500 Y63.700
G1 X-8.800 Y62.200
G1 X-8.200 Y63.100
G1 X-8.500 Y62.200
G1 X-10.000 Y60.700
G1 X-10.000 Y61.300
G1 X-9.400 Y62.200
G1 X-8.800 Y63.700
G1 X-7.000 Y67.000
G1 X-6.400 Y65.200
G1 X-7.600 Y64.300
G1 X-6.400 Y62.500
G1 X-6.400 Y60.100
G1 X-6.100 Y59.500
G1 X-5.200 Y59.200
G1 X-5.200 Y58.600
G1 X-5.800 Y54.700
G1 X-6.700 Y53.200
G1 X-5.800 Y56.500
G1 X-5.800 Y55.900
G1 X-6.100 Y56.500
G1 X-5.200 Y57.100
G1 X-5.500 Y58.300
G1 X-5.500 Y58.900
G1 X-4.900 Y59.200
G1 X-3.700 Y61.000
G1 X-2.500 Y65.200
G1 X-2.500 Y66.100
G1 X-1.600 Y70.300
G1 X-1.300 Y72.700
G1 X-1.300 Y76.300
G1 X-1.000 Y75.100
G1 X-1.000 Y72.400
G1 X-1.300 Y69.700
G1 X-1.900 Y67.000
G1 X-3.700 Y63.100
G1 X-3.100 Y62.500
G1 X-3.700 Y62.800
G1 X-3.100 Y62.200
G1 X-4.600 Y62.500
G1 X-4.300 Y63.100
G1 X-3.700 Y65.800
G1 X-3.700 Y67.300
G1 X-6.100 Y70.000
G1 X-5.800 Y70.600
G1 X-6.100 Y71.800
G1 X-5.200 Y76.000
G1 X-5.200 Y73.600
G1 X-5.800 Y71.500
G1 X-6.100 Y70.600
G1 X-7.600 Y66.400
G1 X-10.000 Y75.400
G1 X-10.600 Y73.000
G1 X-8.800 Y69.700
G1 X-11.500 Y65.200
G1 X-11.800 Y61.000
G1 X-14.500 Y60.700
G1 X-13.600 Y59.500
G1 X-14.500 Y57.700
G1 X-14.800 Y61.000
G1 X-15.700 Y55.600
G1 X-16.000 Y56.500
G1 X-15.700 Y57.700
G1 X-14.800 Y58.600
G1 X-14.800 Y59.200
G1 X-14.200 Y59.500
G1 X-14.500 Y60.400
G1 X-14.500 Y62.800
G1 X-13.900 Y64.600
G1 X-13.900 Y63.100
G1 X-13.000 Y61.600
G1 X-13.000 Y62.800
G1 X-12.400 Y65.200
G1 X-12.100 Y67.000
G1 X-10.600 Y64.600
G1 X-11.500 Y62.500
G1 X-11.500 Y61.900
G1 X-12.100 Y57.400
G1 X-10.600 Y57.400
G1 X-11.500 Y56.500
G1 X-11.500 Y57.100
G1 X-10.600 Y59.200
G1 X-8.200 Y61.900
G1 X-7.600 Y63.700
G1 X-8.200 Y63.400
G1 X-7.300 Y65.800
G1 X-7.300 Y66.400
G1 X-6.400 Y69.100
G1 X-5.500 Y70.300
G1 X-6.400 Y65.800
G1 X-6.700 Y65.200
G1 X-6.700 Y59.800
G1 X-8.800 Y55.900
G1 X-8.500 Y55.300
G1 X-7.900 Y55.900
G1 X-8.200 Y56.500
G1 X-7.600 Y55.900
G1 X-7.900 Y57.100
G1 X-8.500 Y57.700
G1 X-9.400 Y52.600
G1 X-11.500 Y51.100
G1 X-10.600 Y50.500
G1 X-10.600 Y51.100
G1 X-10.300 Y51.700
G1 X-10.900 Y51.100
G1 X-11.200 Y50.500
G1 X-12.400 Y48.700
G1 X-11.800 Y51.400
G1 X-10.300 Y53.200
G1 X-10.900 Y52.000
G1 X-11.500 Y51.400
G1 X-12.100 Y51.100
G1 X-12.400 Y50.500
G1 X-12.400 Y49.600
G1 X-13.600 Y46.600
G1 X-13.000 Y46.900
G1 X-13.300 Y46.300
G1 X-12.400 Y47.500
G1 X-10.600 Y50.200
G1 X-11.800 Y49.300
G1 X-11.800 Y48.700
G1 X-12.400 Y48.400
G1 X-15.400 Y46.600
G1 X-15.700 Y45.400
G1 X-15.400 Y44.800
G1 X-16.300 Y43.600
G1 X-15.700 Y43.000
G1 X-14.500 Y45.400
G1 X-15.100 Y45.700
G1 X-14.800 Y45.100
G1 X-14.500 Y46.000
G1 X-13.900 Y46.300
G1 X-20.500 Y41.200
G1 X-18.100 Y42.100
G1 X-16.900 Y43.600
G1 X-17.500 Y42.100
G1 X-16.300 Y42.400
G1 X-16.900 Y41.800
G1 X-17.200 Y42.400
G1 X-16.300 Y43.300
G1 X-16.600 Y42.700
G1 X-18.400 Y39.700
G1 X-19.000 Y39.700
G1 X-20.200 Y39.400
G1 X-19.300 Y40.000
G1 X-19.000 Y40.600
G1 X-18.400 Y41.200
G1 X-19.000 Y41.500
G1 X-19.300 Y40.300
G1 X-18.700 Y40.000
G1 X-19.000 Y39.100
G1 X-13.000 Y40.000
G1 X-12.700 Y39.100
G1 X-8.500 Y40.300
G1 X-9.100 Y39.700
G1 X-10.000 Y39.700
G1 X-10.300 Y40.300
G1 X-13.300 Y39.400
G1 X-16.000 Y40.300
G1 X-14.500 Y40.300
G1 X-15.100 Y40.600
G1 X-13.000 Y41.800
G1 X-11.500 Y39.700
G1 X-8.200 Y39.100
G1 X-7.300 Y39.700
G1 X-7.900 Y40.300
G1 X-11.500 Y40.900
G1 X-10.300 Y41.800
G1 X-10.900 Y41.800
G1 X-9.700 Y42.100
G1 X-9.700 Y41.500

G0 X-12.700 Y41.800

G1 X-11.500 Y40.600
G1 X-13.000 Y41.200
G1 X-13.300 Y40.300
G1 X-13.900 Y39.400
G1 X-15.100 Y39.400
G1 X-17.200 Y39.100
G1 X-15.700 Y40.600
G1 X-11.800 Y43.000
G1 X-12.100 Y42.100
G1 X-12.700 Y42.100
G1 X-11.200 Y45.400
G1 X-10.000 Y46.300
G1 X-10.600 Y47.200
G1 X-9.100 Y48.400
G1 X-8.200 Y48.400
G1 X-8.500 Y49.300
G1 X-7.300 Y51.100
G1 X-7.000 Y51.700
G1 X-7.600 Y51.400
G1 X-6.700 Y54.400
G1 X-7.000 Y48.100
G1 X-6.700 Y48.700
G1 X-7.600 Y49.300
G1 X-8.500 Y46.900
G1 X-8.800 Y47.500

G0 X-9.700 Y46.900

G1 X-10.300 Y46.300
G1 X-10.000 Y46.900
G1 X-8.500 Y47.800
G1 X-9.700 Y48.400
G1 X-9.100 Y49.300
G1 X-8.800 Y48.700
G1 X-8.200 Y49.000
G1 X-6.100 Y53.500
G1 X-5.500 Y54.400
G1 X-5.800 Y55.300
G1 X-6.400 Y55.900
G1 X-4.000 Y54.700
G1 X-1.900 Y58.900
G1 X-1.600 Y59.800
G1 X.500 Y61.000
G1 X1.400 Y61.000
G1 X2.000 Y61.600
G1 X1.400 Y59.200
G1 X-.100 Y57.700
G1 X-1.000 Y56.200
G1 X-1.600 Y57.400
G1 X-.700 Y58.600
G1 X-.100 Y60.100
G1 X-.100 Y59.500

G0 X-.100 Y58.900

G1 X.200 Y58.300
G1 X.800 Y59.500
G1 X.800 Y60.700
G1 X.500 Y61.600
G1 X4.100 Y63.700
G1 X3.800 Y67.000
G1 X2.000 Y69.400
G1 X.800 Y66.700
G1 X1.400 Y64.900
G1 X1.700 Y65.500
G1 X1.700 Y64.900
G1 X3.200 Y65.200
G1 X4.700 Y65.800
G1 X5.300 Y65.200
G1 X7.400 Y66.400
G1 X7.400 Y67.000
G1 X6.800 Y68.800
G1 X6.800 Y69.700
G1 X6.200 Y71.800
G1 X4.400 Y68.800
G1 X7.700 Y64.000
G1 X5.300 Y68.200
G1 X5.600 Y65.800
G1 X4.700 Y66.100
G1 X5.300 Y65.500

G0 X5.300 Y67.000

G1 X5.900 Y65.800
G1 X6.800 Y65.200
G1 X7.700 Y65.800
G1 X7.700 Y65.200
G1 X11.000 Y60.100
G1 X10.700 Y59.500
G1 X12.200 Y56.500
G1 X11.600 Y56.800
G1 X11.900 Y57.400
G1 X11.000 Y57.400
G1 X11.000 Y58.300
G1 X15.500 Y60.400
G1 X14.900 Y58.600
G1 X14.600 Y57.100
G1 X14.600 Y56.500
G1 X14.300 Y55.300
G1 X14.600 Y55.900
G1 X13.100 Y56.200
G1 X13.100 Y56.800
G1 X14.900 Y54.100
G1 X15.800 Y53.200
G1 X16.400 Y53.800
G1 X17.000 Y53.500
G1 X17.600 Y52.900

G0 X18.200 Y51.400

G1 X18.500 Y50.800
G1 X17.900 Y51.700
G1 X17.300 Y52.000
G1 X16.400 Y52.000
G1 X17.000 Y51.400
G1 X15.800 Y45.400
G1 X16.400 Y44.200
G1 X16.400 Y43.600
G1 X17.000 Y42.100
G1 X17.600 Y42.700
G1 X14.300 Y42.100
G1 X13.700 Y42.100
G1 X14.000 Y41.200
G1 X15.200 Y42.100
G1 X16.100 Y42.100
G1 X14.600 Y38.500
G1 X14.000 Y38.800
G1 X13.400 Y38.500
G1 X13.100 Y37.600
G1 X12.500 Y37.900
G1 X10.700 Y37.900
G1 X11.000 Y37.000
G1 X10.400 Y37.300
G1 X11.000 Y36.700
G1 X8.900 Y37.000

G0 X7.700 Y38.200

G1 X7.400 Y37.600
G1 X8.000 Y37.000
G1 X8.300 Y37.600
G1 X7.700 Y37.000
G1 X6.800 Y36.400
G1 X7.400 Y36.100
G1 X11.000 Y35.800
G1 X11.900 Y35.500
G1 X13.100 Y36.400
G1 X12.500 Y36.400
G1 X10.400 Y37.900
G1 X10.100 Y37.300
G1 X9.800 Y37.900
G1 X9.200 Y37.900
G1 X6.200 Y39.700
G1 X10.700 Y40.300
G1 X12.800 Y40.300
G1 X13.700 Y43.300
G1 X12.200 Y41.200
G1 X11.300 Y41.200
G1 X10.700 Y40.900
G1 X9.500 Y40.900
G1 X8.600 Y40.300
G1 X5.900 Y42.100
G1 X6.200 Y43.600

G0 X5.900 Y43.600

G1 X5.900 Y43.000
G1 X5.900 Y44.200
G1 X6.500 Y45.100
G1 X6.500 Y43.600
G1 X6.800 Y45.700
G1 X6.500 Y46.300
G1 X6.500 Y49.300
G1 X5.600 Y49.000
G1 X5.300 Y51.100
G1 X-.700 Y46.600
G1 X-.100 Y47.500
G1 X.200 Y46.900
G1 X-.700 Y46.300
G1 X5.900 Y53.200
G1 X7.700 Y51.400
G1 X8.600 Y51.700
G1 X9.500 Y50.800
G1 X9.800 Y50.200
G1 X9.200 Y49.900
G1 X8.900 Y50.800
G1 X9.500 Y50.200
G1 X7.700 Y50.500
G1 X5.900 Y49.600
G1 X7.700 Y50.800

G0 X5.900 Y51.400

G1 X5.900 Y50.800
G1 X6.500 Y52.600
G1 X7.400 Y51.100
G1 X5.600 Y50.500
G1 X5.900 Y52.000
G1 X6.800 Y53.800
G1 X10.100 Y50.500
G1 X9.800 Y51.400
G1 X8.900 Y52.000
G1 X9.200 Y53.500
G1 X10.100 Y52.300
G1 X8.600 Y52.900
G1 X8.600 Y52.300
G1 X13.100 Y48.100
G1 X14.000 Y45.400
G1 X13.700 Y44.500
G1 X13.400 Y43.300
G1 X14.000 Y44.500
G1 X13.700 Y45.700
G1 X14.000 Y46.300
G1 X13.700 Y47.800
G1 X12.500 Y49.000
G1 X13.400 Y48.700
G1 X13.400 Y47.800

G0 X13.400 Y53.500

G1 X14.000 Y52.900
G1 X14.300 Y52.300
G1 X14.900 Y51.700
G1 X15.200 Y51.100
G1 X14.600 Y50.800
G1 X13.100 Y54.400
G1 X12.500 Y54.700
G1 X11.900 Y55.300
G1 X13.400 Y55.300
G1 X10.100 Y57.400
G1 X10.400 Y56.800
G1 X10.100 Y60.700
G1 X11.000 Y60.700
G1 X11.900 Y59.200
G1 X12.500 Y57.700
G1 X15.500 Y54.700
G1 X15.200 Y55.300
G1 X16.700 Y52.900
G1 X20.900 Y49.600
G1 X21.200 Y48.700
G1 X20.300 Y49.900
G1 X19.400 Y49.900
G1 X19.400 Y50.500
G1 X21.200 Y54.100

G0 X20.000 Y54.400

G1 X20.000 Y55.000
G1 X21.800 Y56.500
G1 X22.700 Y55.300
G1 X23.300 Y53.200
G1 X25.400 Y55.300
G1 X23.900 Y55.000
G1 X22.400 Y52.000
G1 X21.800 Y52.900
G1 X21.800 Y53.800
G1 X21.500 Y54.400
G1 X21.200 Y55.600
G1 X19.700 Y53.500
G1 X19.400 Y54.400
G1 X19.100 Y55.000
G1 X17.000 Y54.400
G1 X16.400 Y56.500
G1 X17.300 Y60.400
G1 X16.700 Y59.200
G1 X15.500 Y59.200
G1 X14.600 Y59.500
G1 X14.900 Y60.700
G1 X14.300 Y61.300
G1 X14.600 Y63.700
G1 X8.300 Y66.100

G0 X10.400 Y65.500

G1 X10.400 Y66.100
G1 X11.300 Y67.600
G1 X12.200 Y66.100
G1 X11.600 Y65.800
G1 X11.300 Y66.700
G1 X11.000 Y67.300
G1 X11.300 Y65.200
G1 X12.500 Y65.500
G1 X12.200 Y62.500
G1 X13.400 Y62.500
G1 X14.000 Y62.200
G1 X12.200 Y61.000
G1 X11.900 Y62.500
G1 X15.200 Y65.800
G1 X16.100 Y65.800
G1 X16.100 Y66.700
G1 X15.800 Y67.300
G1 X15.200 Y67.600
G1 X15.200 Y69.100
G1 X15.800 Y68.800
G1 X15.200 Y70.000
G1 X14.000 Y71.500
G1 X11.900 Y73.000
G1 X11.300 Y73.300
G1 X11.900 Y73.000

G0 X13.700 Y73.600

G1 X13.100 Y73.900
G1 X14.000 Y73.300
G1 X13.400 Y73.300
G1 X11.300 Y74.800
G1 X11.000 Y75.700
G1 X11.600 Y75.400
G1 X12.500 Y74.500
G1 X13.100 Y74.500
G1 X15.200 Y72.700
G1 X11.900 Y72.400
G1 X9.500 Y75.100
G1 X9.200 Y76.600
G1 X8.900 Y77.200
G1 X8.300 Y77.500
G1 X14.000 Y73.900
G1 X15.200 Y66.100
G1 X16.100 Y71.800
G1 X18.200 Y70.600
G1 X18.800 Y69.400
G1 X19.100 Y70.000
G1 X20.000 Y68.500
G1 X20.900 Y68.200
G1 X22.400 Y66.700
G1 X27.200 Y62.200
G1 X26.600 Y63.100
G1 X26.000 Y63.700

G0 X28.700 Y61.000

G1 X29.300 Y60.400
G1 X29.900 Y59.500
G1 X30.500 Y58.900
G1 X30.200 Y59.500
G1 X29.600 Y59.800
G1 X27.500 Y62.800
G1 X22.400 Y67.000
G1 X23.000 Y66.700
G1 X19.700 Y69.100
G1 X20.600 Y69.100
G1 X21.500 Y68.200
G1 X29.000 Y60.100
G1 X29.300 Y60.700
G1 X28.700 Y61.300
G1 X28.400 Y61.900
G1 X25.100 Y64.600
G1 X23.900 Y66.400
G1 X23.300 Y66.700
G1 X24.500 Y65.800
G1 X26.900 Y63.700
G1 X27.500 Y61.900
G1 X28.100 Y61.600
G1 X27.800 Y56.200
G1 X28.400 Y57.100
G1 X29.000 Y54.100

G0 X27.800 Y54.700

G1 X28.400 Y55.300
G1 X27.500 Y54.700
G1 X28.100 Y54.400
G1 X31.700 Y56.800
G1 X32.300 Y57.100
G1 X33.200 Y55.600
G1 X32.600 Y55.600
G1 X32.300 Y56.200
G1 X33.200 Y55.300
G1 X32.300 Y55.300
G1 X31.400 Y57.100
G1 X32.000 Y57.400
G1 X29.900 Y55.900
G1 X30.500 Y59.200
G1 X28.400 Y61.000
G1 X26.900 Y62.800
G1 X26.300 Y61.900
G1 X26.600 Y61.300
G1 X25.100 Y59.200
G1 X23.900 Y60.700
G1 X23.900 Y59.500
G1 X23.300 Y60.100
G1 X20.300 Y58.900
G1 X20.300 Y60.700

G0 X20.600 Y60.100

G1 X20.600 Y61.000
G1 X21.200 Y60.100
G1 X21.500 Y58.000
G1 X20.300 Y55.900
G1 X17.900 Y55.300
G1 X17.600 Y56.200
G1 X17.600 Y57.100
G1 X17.000 Y57.400
G1 X19.700 Y47.200
G1 X21.800 Y43.900
G1 X20.900 Y45.100
G1 X21.500 Y43.600
G1 X24.200 Y43.000
G1 X23.900 Y42.400
G1 X23.000 Y42.400
G1 X22.400 Y42.700
G1 X25.700 Y44.200
G1 X26.300 Y44.800
G1 X25.700 Y45.400
G1 X24.800 Y46.600
G1 X25.100 Y45.400
G1 X29.600 Y39.700
G1 X29.900 Y38.800
G1 X30.200 Y38.200
G1 X29.600 Y38.500
G1 X29.300 Y39.100

G0 X29.300 Y38.200

G1 X28.400 Y40.000
G1 X28.400 Y40.600
G1 X29.000 Y39.700
G1 X29.300 Y38.800
G1 X31.700 Y39.400
G1 X31.700 Y40.600
G1 X31.100 Y41.200
G1 X30.200 Y40.000
G1 X31.700 Y38.500
G1 X30.500 Y37.600
G1 X31.100 Y35.500
G1 X31.700 Y34.300
G1 X31.700 Y31.000
G1 X32.000 Y30.100
G1 X32.000 Y29.200
G1 X32.600 Y27.100
G1 X32.300 Y25.000
G1 X32.300 Y22.300
G1 X32.600 Y21.700
G1 X32.300 Y20.500
G1 X31.100 Y16.000
G1 X31.400 Y12.700

G0 X29.900 Y7.600

G1 X29.900 Y8.200
G1 X30.200 Y9.100
G1 X30.800 Y12.100
G1 X30.800 Y13.000
G1 X30.200 Y10.300
G1 X29.900 Y8.800
G1 X29.600 Y6.700
G1 X29.900 Y4.900
G1 X29.300 Y3.400
G1 X29.300 Y2.800
G1 X28.400 Y1.600
G1 X28.400 Y2.200
G1 X29.300 Y5.500
G1 X30.200 Y6.400
G1 X30.200 Y7.300
G1 X30.800 Y9.700
G1 X30.800 Y10.300
G1 X31.400 Y12.100
G1 X31.100 Y12.700
G1 X31.700 Y12.400
G1 X31.700 Y13.900
G1 X32.300 Y19.000
G1 X32.300 Y19.900
G1 X32.900 Y22.300

G0 X33.800 Y28.000

G1 X32.900 Y27.700
G1 X32.900 Y22.600
G1 X32.600 Y23.200
G1 X31.700 Y22.000
G1 X31.700 Y19.000
G1 X32.000 Y18.400
G1 X32.300 Y16.600
G1 X31.400 Y18.100
G1 X31.100 Y17.200
G1 X31.100 Y16.600
G1 X31.700 Y15.400
G1 X30.800 Y13.300
G1 X30.800 Y16.600
G1 X24.800 Y16.600
G1 X23.900 Y15.400
G1 X22.100 Y15.400
G1 X22.700 Y14.800
G1 X26.000 Y16.300
G1 X25.400 Y15.700
G1 X24.500 Y16.000

G0 X25.100 Y15.700

G1 X24.200 Y15.100
G1 X23.600 Y15.100
G1 X22.400 Y14.500
G1 X21.800 Y14.500
G1 X23.900 Y15.700
G1 X25.700 Y16.300
G1 X26.300 Y16.900
G1 X25.700 Y16.600
G1 X27.800 Y19.300
G1 X28.700 Y19.900
G1 X28.400 Y20.500
G1 X29.000 Y22.000
G1 X29.300 Y22.600
G1 X29.300 Y23.500
G1 X30.200 Y25.900
G1 X29.900 Y28.000
G1 X30.200 Y28.900
G1 X30.500 Y34.900
G1 X29.600 Y37.300
G1 X29.900 Y37.900
G1 X29.900 Y37.000
G1 X31.400 Y37.900
G1 X31.100 Y38.500
G1 X31.400 Y39.100
G1 X31.100 Y40.000

G0 X31.400 Y39.700

G1 X30.800 Y40.600
G1 X30.200 Y40.300
G1 X29.000 Y42.100
G1 X30.500 Y42.100
G1 X31.100 Y40.600
G1 X31.400 Y41.500
G1 X32.600 Y46.000
G1 X31.700 Y47.500
G1 X31.400 Y48.100
G1 X31.700 Y49.000
G1 X32.600 Y50.500
G1 X32.900 Y49.900
G1 X32.300 Y50.500
G1 X29.300 Y55.900
G1 X29.600 Y55.000
G1 X29.000 Y55.600
G1 X23.000 Y64.600
G1 X21.800 Y65.500
G1 X20.600 Y67.000
G1 X20.900 Y66.100
G1 X20.300 Y66.700
G1 X19.100 Y67.600
G1 X19.700 Y67.600
G1 X20.300 Y67.000
G1 X22.100 Y65.500

G0 X21.500 Y66.400

G1 X22.700 Y65.200
G1 X21.800 Y64.300
G1 X20.300 Y66.400
G1 X19.700 Y67.000
G1 X18.800 Y67.300
G1 X18.200 Y66.400
G1 X20.000 Y65.200
G1 X19.100 Y64.900
G1 X19.100 Y65.500
G1 X20.000 Y64.900
G1 X19.700 Y64.300
G1 X20.900 Y62.500
G1 X22.100 Y60.100
G1 X19.400 Y61.300
G1 X20.300 Y61.300
G1 X19.400 Y61.900
G1 X22.400 Y67.900
G1 X20.900 Y67.000
G1 X19.700 Y67.900
G1 X21.200 Y68.200
G1 X20.600 Y67.900
G1 X15.200 Y72.100
G1 X15.800 Y71.800
G1 X14.300 Y73.000

G0 X14.600 Y73.000

G1 X15.200 Y73.000
G1 X16.400 Y71.800
G1 X17.000 Y70.900
G1 X18.200 Y70.000
G1 X18.800 Y70.300
G1 X19.100 Y69.400
G1 X19.700 Y69.700
G1 X16.100 Y72.400
G1 X12.500 Y72.100
G1 X12.200 Y73.000
G1 X9.800 Y74.200
G1 X9.200 Y75.100
G1 X9.200 Y74.500
G1 X8.900 Y75.100
G1 X4.700 Y74.800
G1 X5.600 Y73.300
G1 X5.600 Y72.100
G1 X4.700 Y74.500
G1 X1.400 Y79.300
G1 X4.100 Y77.200
G1 X5.900 Y76.900
G1 X6.500 Y77.500
G1 X8.000 Y77.500
G1 X7.700 Y76.600

G0 X7.700 Y73.000

G1 X10.400 Y66.400
G1 X9.500 Y66.100
G1 X9.800 Y67.300
G1 X10.100 Y67.900
G1 X9.500 Y68.500
G1 X8.900 Y67.300
G1 X9.200 Y66.700
G1 X8.300 Y61.300
G1 X7.700 Y61.600
G1 X8.300 Y60.400
G1 X8.900 Y61.600
G1 X9.500 Y64.900
G1 X8.000 Y66.100
G1 X7.400 Y70.000
G1 X6.500 Y69.700
G1 X6.200 Y70.300

G0 X10.400 Y70.600

G1 X11.000 Y70.000
G1 X10.700 Y71.500
G1 X9.500 Y72.700
G1 X9.200 Y71.500
G1 X8.600 Y71.800
G1 X8.900 Y72.700
G1 X8.000 Y74.200
G1 X8.000 Y73.300
G1 X11.000 Y68.800
G1 X11.900 Y69.400
G1 X12.500 Y70.900
G1 X13.700 Y69.100
G1 X14.600 Y71.200
G1 X15.500 Y70.000
G1 X19.400 Y67.900
G1 X18.800 Y67.600
G1 X18.500 Y68.200
G1 X17.000 Y68.800
G1 X17.000 Y60.700
G1 X18.500 Y60.700
G1 X18.200 Y59.800
G1 X18.200 Y58.600
G1 X18.500 Y58.000
G1 X17.000 Y58.300
G1 X17.600 Y57.400

G0 X16.400 Y55.600

G1 X16.400 Y54.100
G1 X21.500 Y52.600
G1 X20.900 Y51.700
G1 X21.500 Y51.100
G1 X21.200 Y51.700
G1 X19.400 Y49.300
G1 X21.200 Y53.500
G1 X21.800 Y54.100
G1 X20.600 Y55.300
G1 X20.300 Y54.700
G1 X19.700 Y55.000
G1 X20.000 Y57.700
G1 X19.400 Y57.700
G1 X19.100 Y58.300
G1 X22.100 Y61.600
G1 X20.900 Y64.600
G1 X20.300 Y65.200
G1 X22.400 Y60.400
G1 X22.100 Y59.800
G1 X23.300 Y60.400
G1 X22.700 Y61.300
G1 X23.300 Y61.300
G1 X21.500 Y64.300
G1 X22.100 Y63.100

G0 X23.000 Y60.700

G1 X23.600 Y61.000
G1 X23.600 Y60.400
G1 X24.200 Y60.100
G1 X22.700 Y59.800
G1 X23.900 Y58.600
G1 X24.800 Y58.600
G1 X25.100 Y57.700
G1 X26.600 Y57.400
G1 X27.200 Y58.900
G1 X27.800 Y59.800
G1 X26.300 Y61.300
G1 X31.400 Y58.300
G1 X30.800 Y58.300
G1 X30.800 Y59.200
G1 X28.700 Y61.600
G1 X26.600 Y59.800
G1 X27.800 Y59.500
G1 X26.900 Y60.400
G1 X27.500 Y58.300
G1 X26.900 Y57.700
G1 X26.600 Y58.300
G1 X26.000 Y58.000
G1 X26.300 Y58.600
G1 X23.900 Y59.200
G1 X24.500 Y58.900

G0 X22.400 Y57.100

G1 X20.900 Y58.000
G1 X20.000 Y58.600
G1 X18.800 Y61.900
G1 X18.500 Y61.000
G1 X15.800 Y62.500
G1 X16.400 Y62.800
G1 X15.800 Y63.400
G1 X16.400 Y64.300
G1 X16.400 Y65.200
G1 X16.700 Y65.800
G1 X15.800 Y65.200
G1 X15.800 Y64.600
G1 X13.400 Y68.200
G1 X13.100 Y68.800
G1 X13.700 Y65.500
G1 X19.400 Y55.900
G1 X22.400 Y53.200
G1 X22.100 Y54.100
G1 X20.300 Y56.500
G1 X20.300 Y57.400
G1 X19.100 Y56.800
G1 X19.400 Y59.200
G1 X18.800 Y60.100
G1 X18.500 Y62.800
G1 X18.500 Y62.200

G0 X19.100 Y63.700

G1 X19.400 Y64.300
G1 X20.000 Y63.400
G1 X20.000 Y62.800
G1 X20.900 Y62.200
G1 X20.900 Y61.600
G1 X21.800 Y59.800
G1 X22.100 Y58.900
G1 X22.100 Y57.700
G1 X23.900 Y55.300
G1 X22.700 Y55.600
G1 X22.400 Y56.800
G1 X23.000 Y56.200
G1 X27.200 Y50.200
G1 X27.500 Y50.800
G1 X25.700 Y53.500
G1 X26.300 Y53.800
G1 X27.800 Y52.000
G1 X30.500 Y45.700
G1 X31.400 Y46.300
G1 X31.100 Y45.400
G1 X32.300 Y46.000
G1 X32.900 Y44.500
G1 X35.600 Y48.400
G1 X35.900 Y47.500
G1 X34.400 Y50.200
G1 X34.700 Y51.400
G1 X32.600 Y55.000
G1 X33.200 Y54.700
G1 X32.600 Y56.200
G1 X32.300 Y56.800
G1 X31.700 Y56.500

G0 X32.900 Y55.000

G1 X32.300 Y54.700
G1 X33.200 Y53.500
G1 X33.500 Y55.000
G1 X36.200 Y47.200
G1 X35.900 Y46.600
G1 X35.300 Y47.200
G1 X35.900 Y45.400
G1 X36.800 Y44.200
G1 X35.600 Y44.500
G1 X35.900 Y43.600
G1 X35.000 Y40.600
G1 X35.300 Y40.000
G1 X35.300 Y37.300
G1 X35.000 Y37.900
G1 X34.400 Y37.000
G1 X34.400 Y32.200
G1 X34.700 Y31.300
G1 X34.700 Y30.400
G1 X35.000 Y31.300
G1 X35.000 Y33.100
G1 X34.700 Y34.300
G1 X32.900 Y39.400
G1 X32.900 Y43.300
G1 X30.800 Y46.900

G0 X31.400 Y46.600

G1 X29.000 Y45.400
G1 X29.000 Y47.800
G1 X30.200 Y45.700
G1 X31.700 Y44.800
G1 X31.100 Y44.500
G1 X29.900 Y44.800
G1 X29.600 Y45.400
G1 X29.900 Y44.200
G1 X32.600 Y46.300
G1 X38.000 Y48.700
G1 X38.300 Y49.600
G1 X37.700 Y49.000
G1 X36.500 Y51.700
G1 X35.900 Y53.200
G1 X36.800 Y52.600
G1 X37.100 Y51.700
G1 X37.400 Y51.100
G1 X38.000 Y50.200
G1 X38.000 Y49.600
G1 X37.400 Y50.200
G1 X36.800 Y51.100
G1 X36.500 Y52.600
G1 X37.700 Y50.200
G1 X37.700 Y49.600

G0 X33.200 Y53.500

G1 X34.400 Y50.800
G1 X35.000 Y50.200
G1 X35.600 Y49.900
G1 X33.800 Y48.400
G1 X34.100 Y46.600
G1 X33.200 Y49.600
G1 X32.900 Y50.800
G1 X29.300 Y54.100
G1 X29.000 Y52.900
G1 X27.200 Y50.800
G1 X27.500 Y49.900
G1 X28.700 Y48.100
G1 X28.100 Y49.300
G1 X27.500 Y50.200
G1 X28.400 Y49.900
G1 X28.700 Y49.000
G1 X29.300 Y48.100
G1 X30.800 Y49.300
G1 X29.900 Y49.900
G1 X30.200 Y49.300
G1 X29.000 Y50.500
G1 X29.000 Y49.600
G1 X30.800 Y48.100
G1 X30.800 Y47.500
G1 X30.200 Y47.800
G1 X29.900 Y48.700

G0 X31.700 Y47.800

G1 X32.300 Y48.100
G1 X32.000 Y48.700
G1 X32.300 Y46.900
G1 X30.200 Y47.200
G1 X29.900 Y47.800
G1 X29.600 Y49.600
G1 X30.800 Y50.200
G1 X29.000 Y52.600
G1 X29.600 Y52.900
G1 X29.300 Y51.700
G1 X29.900 Y52.300
G1 X30.800 Y52.900
G1 X30.800 Y54.100
G1 X31.400 Y55.000
G1 X32.000 Y56.800
G1 X31.100 Y57.700
G1 X31.400 Y58.600
G1 X32.000 Y57.700
G1 X31.400 Y57.700
G1 X30.500 Y56.500
G1 X30.500 Y55.300
G1 X30.800 Y54.700
G1 X33.800 Y53.500
G1 X33.500 Y54.100
G1 X32.900 Y55.000

G0 X33.200 Y53.800

G1 X33.200 Y54.400
G1 X35.300 Y49.000
G1 X35.300 Y48.100
G1 X35.900 Y47.200
G1 X35.900 Y44.200
G1 X36.800 Y43.900
G1 X36.500 Y43.300
G1 X36.800 Y42.400
G1 X36.800 Y39.700
G1 X35.000 Y38.200
G1 X35.000 Y39.100
G1 X35.300 Y42.100
G1 X36.800 Y39.100
G1 X36.500 Y38.500
G1 X34.700 Y36.400
G1 X35.000 Y35.200
G1 X35.000 Y34.600
G1 X34.100 Y28.000
G1 X33.800 Y28.600
G1 X32.900 Y26.200
G1 X33.800 Y27.700
G1 X32.900 Y28.000
G1 X34.100 Y30.400

G0 X34.100 Y29.200

G1 X33.500 Y29.500
G1 X33.800 Y30.700
G1 X33.500 Y30.100
G1 X34.400 Y28.900
G1 X33.800 Y28.900
G1 X33.500 Y26.500
G1 X32.000 Y25.600
G1 X32.000 Y21.100
G1 X32.600 Y22.300
G1 X29.300 Y23.800
G1 X30.200 Y23.800
G1 X30.200 Y25.300
G1 X29.900 Y23.200
G1 X29.900 Y22.600
G1 X29.000 Y21.100
G1 X29.000 Y21.700
G1 X28.700 Y21.100
G1 X28.700 Y22.600
G1 X29.300 Y22.900
G1 X29.600 Y21.100
G1 X28.700 Y19.300
G1 X27.800 Y18.100

G0 X35.300 Y32.500

G1 X35.600 Y37.900
G1 X35.600 Y38.500
G1 X36.800 Y37.300
G1 X36.800 Y38.800
G1 X36.500 Y37.900
G1 X36.200 Y38.500
G1 X35.300 Y42.700
G1 X35.000 Y41.200
G1 X32.000 Y45.100
G1 X32.000 Y46.300
G1 X30.800 Y49.000
G1 X32.600 Y49.600
G1 X32.900 Y49.000
G1 X35.000 Y49.900
G1 X34.400 Y50.500
G1 X33.800 Y51.400
G1 X33.800 Y52.300
G1 X35.600 Y49.600
G1 X35.000 Y49.000
G1 X35.000 Y47.200
G1 X33.500 Y45.100
G1 X32.900 Y46.300
G1 X32.900 Y45.400
G1 X32.600 Y44.800

G0 X32.000 Y42.100

G1 X32.300 Y42.700
G1 X31.700 Y43.300
G1 X31.100 Y42.700
G1 X32.300 Y42.100
G1 X37.100 Y41.800
G1 X36.500 Y41.200
G1 X36.800 Y42.100
G1 X36.200 Y42.400
G1 X35.600 Y42.100
G1 X36.500 Y43.000
G1 X34.700 Y43.300
G1 X34.700 Y44.500
G1 X34.400 Y43.900
G1 X34.100 Y42.700
G1 X35.000 Y42.100
G1 X33.800 Y39.700
G1 X33.800 Y37.900
G1 X33.200 Y36.100
G1 X29.900 Y36.100
G1 X30.800 Y37.300
G1 X31.700 Y37.600
G1 X31.100 Y36.400
G1 X29.600 Y37.600

G0 X29.900 Y37.900

G1 X29.900 Y37.300
G1 X29.300 Y39.400
G1 X27.800 Y41.500
G1 X26.600 Y43.300
G1 X25.700 Y45.100
G1 X26.600 Y43.900
G1 X26.900 Y43.300
G1 X27.500 Y41.500
G1 X28.700 Y40.000
G1 X29.300 Y38.500
G1 X29.900 Y38.200
G1 X30.200 Y37.600
G1 X31.100 Y35.200
G1 X30.500 Y35.800
G1 X30.200 Y37.000
G1 X30.800 Y34.900
G1 X30.500 Y35.500
G1 X31.100 Y34.900
G1 X32.000 Y30.700
G1 X32.000 Y33.700
G1 X31.700 Y33.100
G1 X32.600 Y35.200
G1 X32.600 Y35.800
G1 X33.200 Y38.500

G0 X31.400 Y38.500

G1 X30.200 Y41.800
G1 X30.200 Y41.200
G1 X31.100 Y41.500
G1 X31.400 Y40.000
G1 X29.600 Y43.300
G1 X28.700 Y43.600
G1 X28.400 Y44.200
G1 X27.800 Y44.800
G1 X27.500 Y46.000
G1 X28.700 Y44.200
G1 X30.200 Y40.600
G1 X26.900 Y46.000
G1 X26.000 Y47.500
G1 X25.400 Y48.100
G1 X24.500 Y48.700
G1 X24.500 Y49.900
G1 X23.900 Y50.500
G1 X22.700 Y51.400
G1 X22.400 Y52.600
G1 X23.000 Y51.700
G1 X23.600 Y50.200
G1 X24.200 Y49.600
G1 X23.900 Y50.200
G1 X27.200 Y46.300
G1 X27.200 Y45.700
G1 X28.100 Y44.800
G1 X29.300 Y42.400

G0 X29.900 Y41.800

G1 X29.600 Y42.400
G1 X29.600 Y43.000
G1 X31.400 Y41.800
G1 X30.800 Y41.800
G1 X30.500 Y43.000
G1 X30.800 Y42.400
G1 X32.000 Y47.800
G1 X31.400 Y49.000
G1 X31.400 Y49.600
G1 X30.500 Y51.400
G1 X29.600 Y54.700
G1 X30.800 Y52.300
G1 X28.400 Y53.800
G1 X28.400 Y54.400
G1 X29.300 Y52.600
G1 X29.900 Y52.000
G1 X29.600 Y51.100
G1 X29.000 Y51.400
G1 X30.200 Y50.200
G1 X30.800 Y51.400
G1 X36.200 Y46.600
G1 X36.200 Y43.900
G1 X36.500 Y41.800
G1 X36.500 Y39.100
G1 X34.400 Y36.700
G1 X35.300 Y37.000
G1 X34.700 Y35.500
G1 X34.700 Y34.000
G1 X35.000 Y33.400

G0 X36.500 Y40.900

G1 X36.200 Y40.000
G1 X36.200 Y39.400
G1 X35.600 Y39.100
G1 X35.600 Y40.300
G1 X36.200 Y40.900
G1 X36.200 Y42.700
G1 X36.800 Y43.000
G1 X36.500 Y44.200
G1 X36.800 Y45.100
G1 X30.200 Y44.200
G1 X29.300 Y44.800
G1 X29.000 Y43.900
G1 X29.600 Y43.600
G1 X28.400 Y43.300
G1 X28.400 Y43.900
G1 X27.800 Y44.200
G1 X26.600 Y46.000
G1 X26.000 Y46.600
G1 X26.600 Y47.200
G1 X26.300 Y47.800
G1 X25.100 Y48.100
G1 X25.700 Y47.200
G1 X27.500 Y45.700
G1 X26.900 Y46.300

G0 X26.000 Y48.700

G1 X24.800 Y48.700
G1 X26.300 Y48.100
G1 X28.100 Y45.100
G1 X29.300 Y45.700
G1 X28.100 Y45.400
G1 X28.700 Y46.300
G1 X26.000 Y47.200
G1 X24.500 Y48.400
G1 X24.800 Y49.900
G1 X25.700 Y49.600
G1 X25.100 Y50.200
G1 X24.800 Y49.600
G1 X25.400 Y50.200
G1 X24.500 Y51.400
G1 X23.900 Y49.900
G1 X24.200 Y49.300
G1 X26.000 Y49.300
G1 X22.700 Y46.900
G1 X23.000 Y47.800
G1 X22.400 Y47.500
G1 X21.200 Y47.800
G1 X21.800 Y48.700
G1 X21.500 Y49.600
G1 X20.600 Y51.100
G1 X20.900 Y52.300
G1 X19.100 Y55.600
G1 X18.800 Y57.400
G1 X18.500 Y59.500
G1 X19.100 Y58.600
G1 X18.500 Y60.100
G1 X20.600 Y57.400
G1 X20.600 Y56.500
G1 X21.500 Y56.800
G1 X16.700 Y52.300
G1 X17.300 Y51.400
G1 X15.800 Y52.900
G1 X14.600 Y54.700
G1 X15.200 Y57.400
G1 X15.800 Y58.000
G1 X15.200 Y57.700
G1 X14.900 Y59.800
G1 X13.100 Y61.900
G1 X13.700 Y61.600
G1 X15.800 Y62.800
G1 X16.100 Y63.400
G1 X16.700 Y64.000
G1 X16.700 Y62.500
G1 X16.400 Y61.900
G1 X16.700 Y59.800
G1 X17.000 Y60.400

G0 X14.900 Y59.800

G1 X14.300 Y61.000
G1 X14.900 Y61.300
G1 X15.500 Y59.500
G1 X16.100 Y58.900
G1 X17.300 Y57.400
G1 X13.400 Y64.600
G1 X12.800 Y65.500
G1 X13.400 Y64.000
G1 X11.600 Y61.300
G1 X10.100 Y68.800
G1 X9.500 Y64.600
G1 X9.500 Y62.200
G1 X8.600 Y61.300
G1 X8.900 Y60.700
G1 X9.200 Y61.300
G1 X8.900 Y62.500
G1 X8.600 Y61.900
G1 X7.400 Y62.500
G1 X8.600 Y60.400
G1 X8.900 Y59.800
G1 X8.900 Y58.600
G1 X8.300 Y60.100
G1 X14.000 Y62.800
G1 X14.600 Y61.900

G0 X15.200 Y58.900

G1 X16.100 Y58.600
G1 X16.100 Y57.700
G1 X16.700 Y57.400
G1 X17.000 Y56.200
G1 X16.100 Y55.900
G1 X15.500 Y56.800
G1 X16.400 Y60.400
G1 X15.200 Y62.200
G1 X14.900 Y63.100
G1 X16.700 Y65.200
G1 X16.400 Y65.800
G1 X16.100 Y69.400
G1 X16.700 Y70.000
G1 X15.200 Y70.900
G1 X7.100 Y77.200
G1 X6.800 Y76.600
G1 X2.600 Y78.100
G1 X2.300 Y79.000
G1 X1.400 Y78.700
G1 X1.100 Y79.300
G1 X.200 Y79.600
G1 X-1.300 Y77.200
G1 X-.700 Y77.200
G1 X-1.300 Y76.600
G1 X-1.300 Y77.200

G0 X-1.600 Y77.500

G1 X-.100 Y77.500
G1 X2.000 Y77.800
G1 X1.100 Y78.400
G1 X.200 Y78.700
G1 X-1.300 Y79.300
G1 X-1.900 Y79.300
G1 X-1.900 Y80.200
G1 X-.100 Y79.600
G1 X2.900 Y77.500
G1 X5.300 Y76.600
G1 X6.200 Y76.600
G1 X7.700 Y75.700
G1 X6.500 Y75.100
G1 X7.700 Y77.800
G1 X5.600 Y77.500
G1 X5.000 Y77.200
G1 X4.400 Y77.500
G1 X3.500 Y77.500
G1 X-2.500 Y80.500
G1 X-5.200 Y79.900
G1 X-4.300 Y78.400
G1 X-3.400 Y78.400
G1 X-4.300 Y79.000
G1 X-5.200 Y76.900
G1 X-5.200 Y76.300

G0 X-3.100 Y73.600

G1 X-4.000 Y74.200
G1 X-3.100 Y71.500
G1 X-3.400 Y70.600
G1 X-2.800 Y71.500
G1 X-7.300 Y74.500
G1 X-7.300 Y72.400
G1 X-10.600 Y63.700
G1 X-11.500 Y65.500
G1 X-13.600 Y67.300
G1 X-14.500 Y69.100
G1 X-14.500 Y71.500
G1 X-12.400 Y74.800
G1 X-12.700 Y75.400
G1 X-12.100 Y72.700
G1 X-15.100 Y74.800
G1 X-15.100 Y73.900
G1 X-15.700 Y72.400
G1 X-15.700 Y70.600
G1 X-16.600 Y68.500
G1 X-16.300 Y67.900
G1 X-16.300 Y67.000
G1 X-15.700 Y64.600
G1 X-15.100 Y66.400
G1 X-15.100 Y67.300

G0 X-16.300 Y66.400

G1 X-17.800 Y74.200
G1 X-17.500 Y73.600
G1 X-16.900 Y73.900
G1 X-16.600 Y75.100
G1 X-16.600 Y75.700
G1 X-17.800 Y74.800
G1 X-13.600 Y74.800
G1 X-13.600 Y73.900
G1 X-12.700 Y73.600
G1 X-12.400 Y72.400
G1 X-12.100 Y74.800
G1 X-12.400 Y75.400
G1 X-11.200 Y78.100
G1 X-9.700 Y76.600
G1 X-10.000 Y76.000
G1 X-10.600 Y78.400
G1 X-10.000 Y79.000
G1 X-10.300 Y78.100
G1 X-7.000 Y80.200
G1 X-6.100 Y80.500
G1 X-5.200 Y79.600
G1 X-6.400 Y80.200
G1 X-8.500 Y78.700
G1 X-9.100 Y79.300
G1 X-8.500 Y79.000

G0 X-10.600 Y78.100

G1 X-9.700 Y78.700
G1 X-8.800 Y78.700
G1 X-8.500 Y79.600
G1 X-7.900 Y79.300
G1 X-7.000 Y80.500
G1 X-5.800 Y80.200
G1 X-3.400 Y79.900
G1 X-2.200 Y79.900
G1 X-1.000 Y79.300
G1 X1.100 Y79.000
G1 X11.000 Y75.100
G1 X10.100 Y76.300
G1 X9.500 Y76.300
G1 X9.200 Y76.900
G1 X8.000 Y76.900
G1 X8.900 Y76.600
G1 X8.300 Y77.200
G1 X6.500 Y77.200
G1 X10.700 Y75.700
G1 X11.900 Y74.800
G1 X12.500 Y74.200
G1 X13.100 Y74.200
G1 X14.300 Y73.300
G1 X14.600 Y72.700
G1 X15.800 Y72.100
G1 X17.300 Y70.900
G1 X23.000 Y67.000
G1 X26.600 Y63.700
G1 X31.100 Y57.400
G1 X31.400 Y58.000
G1 X32.000 Y57.100
G1 X32.300 Y56.500
G1 X32.600 Y55.300
G1 X30.800 Y58.600
G1 X25.100 Y57.400
G1 X25.700 Y56.200
G1 X23.600 Y58.600
G1 X23.600 Y59.200
G1 X22.400 Y61.000
G1 X22.400 Y61.900
G1 X21.200 Y63.700
G1 X21.200 Y64.300
G1 X22.700 Y61.900
G1 X22.700 Y61.000
G1 X23.300 Y60.700
G1 X23.600 Y59.500
G1 X24.200 Y59.800
G1 X20.600 Y61.600
G1 X20.600 Y62.200
G1 X19.100 Y64.300
G1 X20.600 Y61.300
G1 X21.500 Y60.100
G1 X22.100 Y56.800
G1 X21.500 Y57.400
G1 X22.100 Y57.100

G0 X26.000 Y52.300

G1 X25.400 Y53.200
G1 X26.000 Y53.500
G1 X25.100 Y54.100
G1 X25.400 Y55.000
G1 X24.800 Y54.400
G1 X24.500 Y55.000
G1 X23.900 Y55.600
G1 X24.500 Y55.300
G1 X25.400 Y57.100
G1 X24.200 Y57.400
G1 X23.900 Y58.000
G1 X24.500 Y58.300
G1 X24.200 Y57.700
G1 X26.300 Y62.800
G1 X25.400 Y62.500
G1 X24.800 Y63.400
G1 X25.700 Y64.900
G1 X23.300 Y67.300
G1 X22.400 Y67.600
G1 X20.600 Y68.800
G1 X20.000 Y69.400
G1 X19.400 Y69.100
G1 X20.000 Y69.700
G1 X21.500 Y68.500

G0 X18.500 Y66.400

G1 X18.200 Y65.800
G1 X18.200 Y64.600
G1 X18.500 Y64.000
G1 X18.500 Y63.100
G1 X17.300 Y63.400
G1 X17.300 Y64.000
G1 X17.900 Y58.900
G1 X17.300 Y58.600
G1 X17.600 Y59.800
G1 X17.900 Y60.400
G1 X19.400 Y60.700
G1 X19.100 Y60.100
G1 X19.400 Y59.500
G1 X18.800 Y58.600
G1 X18.200 Y55.000
G1 X19.100 Y55.300
G1 X21.500 Y56.500
G1 X22.100 Y55.900
G1 X21.500 Y55.900
G1 X22.100 Y55.600
G1 X21.800 Y55.000
G1 X22.400 Y54.700
G1 X24.200 Y54.100
G1 X30.200 Y51.100
G1 X30.500 Y52.000
G1 X31.100 Y51.400

G0 X19.400 Y50.800

G1 X18.800 Y50.500
G1 X17.900 Y53.200
G1 X16.700 Y54.400
G1 X17.300 Y55.900
G1 X17.300 Y56.500
G1 X16.400 Y56.800
G1 X17.900 Y55.000
G1 X17.000 Y52.600
G1 X18.200 Y52.300
G1 X14.900 Y54.400
G1 X20.300 Y48.700
G1 X23.900 Y44.200
G1 X25.400 Y41.200
G1 X24.800 Y41.800
G1 X24.200 Y42.700
G1 X24.500 Y41.500
G1 X25.100 Y40.600
G1 X24.500 Y39.400
G1 X23.900 Y39.700
G1 X23.300 Y41.200
G1 X21.800 Y42.700
G1 X20.900 Y43.300
G1 X21.200 Y42.400
G1 X20.000 Y44.500
G1 X26.000 Y39.100
G1 X26.600 Y39.100
G1 X25.700 Y39.700
G1 X26.300 Y39.700
G1 X25.400 Y40.300
G1 X25.400 Y40.900
G1 X24.800 Y41.500
G1 X25.100 Y40.900

G0 X22.700 Y40.600

G1 X23.600 Y39.700
G1 X23.300 Y40.600
G1 X21.500 Y42.100
G1 X21.500 Y42.700
G1 X23.000 Y41.200
G1 X19.400 Y38.800
G1 X17.600 Y39.400
G1 X16.700 Y39.100
G1 X15.500 Y38.200
G1 X13.700 Y37.900
G1 X13.100 Y38.200
G1 X11.900 Y38.200
G1 X12.800 Y38.800
G1 X11.300 Y38.200
G1 X10.700 Y38.500
G1 X10.100 Y38.500
G1 X8.600 Y39.100
G1 X12.500 Y36.100
G1 X5.900 Y34.000
G1 X6.800 Y33.700
G1 X6.200 Y34.300
G1 X6.800 Y34.000
G1 X7.400 Y34.300

G0 X7.700 Y34.300

G1 X7.100 Y33.700
G1 X8.300 Y34.300
G1 X3.500 Y37.900
G1 X5.300 Y38.200
G1 X5.300 Y38.800
G1 X2.900 Y38.800
G1 X.500 Y35.500
G1 X1.400 Y35.800
G1 X2.300 Y36.400
G1 X-3.700 Y34.900
G1 X-6.100 Y36.100
G1 X-1.600 Y36.100
G1 X-1.600 Y36.700
G1 X-3.700 Y36.400
G1 X-2.500 Y38.200
G1 X-2.200 Y37.300
G1 X-2.800 Y37.300
G1 X2.900 Y37.000
G1 X3.500 Y39.700
G1 X6.200 Y36.100
G1 X8.300 Y31.600
G1 X7.100 Y31.600
G1 X10.700 Y33.400
G1 X11.600 Y33.400
G1 X10.400 Y33.100
G1 X9.800 Y32.500
G1 X8.900 Y32.200
G1 X8.300 Y32.500
G1 X5.900 Y31.300
G1 X6.800 Y31.900
G1 X6.800 Y31.000
G1 X6.200 Y30.400
G1 X3.800 Y30.400

G0 X5.300 Y31.000

G1 X6.800 Y32.200
G1 X6.500 Y31.300
G1 X5.000 Y30.700
G1 X3.800 Y30.700
G1 X3.500 Y30.100
G1 X-1.900 Y29.500
G1 X-1.000 Y28.600
G1 X-1.600 Y28.300
G1 X-1.600 Y26.800
G1 X-2.800 Y20.800
G1 X-2.800 Y19.900
G1 X-3.700 Y19.600
G1 X-4.300 Y19.600
G1 X-4.300 Y20.200
G1 X-3.400 Y22.000
G1 X-3.700 Y21.400
G1 X-3.400 Y20.500
G1 X-2.800 Y22.000
G1 X-2.800 Y23.500
G1 X-2.500 Y24.100
G1 X-1.900 Y25.000
G1 X-2.200 Y26.500
G1 X-2.500 Y27.100

G0 X-4.600 Y24.700

G1 X-4.600 Y25.300
G1 X-5.200 Y22.300
G1 X-5.200 Y21.700
G1 X-5.500 Y20.800
G1 X-5.800 Y20.200
G1 X-5.200 Y24.100
G1 X-4.300 Y24.700
G1 X-4.300 Y25.900
G1 X-4.900 Y25.300
G1 X-4.600 Y23.800
G1 X-5.200 Y22.600
G1 X-5.200 Y20.500
G1 X-5.800 Y19.900
G1 X-6.100 Y20.500
G1 X-4.900 Y16.600
G1 X-4.000 Y20.500
G1 X-3.400 Y21.100
G1 X-3.100 Y22.900
G1 X-3.400 Y22.300
G1 X-3.100 Y21.700
G1 X-3.700 Y22.300
G1 X-2.500 Y24.700
G1 X-2.800 Y28.900
G1 X-1.900 Y28.900
G1 X-3.100 Y31.000

G0 X-2.800 Y30.400

G1 X-3.700 Y31.000
G1 X-5.200 Y31.900
G1 X-8.800 Y33.100
G1 X-10.000 Y33.100
G1 X-18.700 Y33.700
G1 X-20.500 Y33.700
G1 X-22.600 Y33.400
G1 X-27.700 Y32.200
G1 X-29.500 Y32.500
G1 X-30.400 Y32.200
G1 X-28.900 Y32.200
G1 X-27.400 Y32.500
G1 X-26.800 Y32.200
G1 X-26.200 Y32.200
G1 X-25.300 Y32.500
G1 X-22.300 Y33.100
G1 X-21.400 Y33.100
G1 X-19.900 Y33.400
G1 X-14.200 Y34.000
G1 X-14.800 Y33.700
G1 X-15.400 Y33.700
G1 X-16.000 Y34.000
G1 X-18.400 Y34.000

G0 X-21.700 Y38.500

G1 X-21.100 Y38.500
G1 X-20.500 Y39.100
G1 X-22.000 Y38.200
G1 X-21.400 Y38.200
G1 X-19.300 Y39.100
G1 X-19.600 Y40.300
G1 X-21.400 Y38.800
G1 X-22.000 Y38.500
G1 X-22.300 Y37.900
G1 X-21.700 Y38.200
G1 X-17.800 Y39.700
G1 X-17.500 Y40.600
G1 X-15.100 Y44.200
G1 X-15.700 Y44.200
G1 X-16.300 Y44.800
G1 X-14.500 Y46.300
G1 X-13.900 Y45.700
G1 X-14.500 Y44.800
G1 X-13.000 Y46.300
G1 X-13.300 Y47.200
G1 X-13.900 Y48.100
G1 X-12.100 Y50.200
G1 X-11.500 Y50.800
G1 X-11.800 Y49.900
G1 X-11.200 Y49.600

G0 X-11.200 Y49.300

G1 X-13.000 Y48.400
G1 X-15.400 Y45.700
G1 X-15.100 Y45.100
G1 X-15.400 Y44.500
G1 X-16.300 Y44.200
G1 X-16.900 Y43.900
G1 X-17.500 Y45.400
G1 X-17.800 Y46.000
G1 X-17.500 Y47.800
G1 X-18.400 Y47.500
G1 X-19.000 Y46.900
G1 X-19.000 Y46.300
G1 X-25.300 Y46.300
G1 X-25.900 Y45.700
G1 X-25.600 Y46.300
G1 X-24.700 Y45.700
G1 X-24.700 Y47.800
G1 X-24.100 Y47.500
G1 X-26.800 Y47.500
G1 X-26.200 Y46.300
G1 X-27.400 Y49.900
G1 X-27.400 Y50.500
G1 X-27.100 Y51.700
G1 X-26.500 Y51.400
G1 X-26.800 Y50.800

G0 X-28.300 Y51.700

G1 X-29.800 Y53.800
G1 X-30.100 Y52.300
G1 X-29.800 Y51.700
G1 X-31.300 Y49.600
G1 X-31.600 Y52.300
G1 X-31.300 Y53.800
G1 X-30.400 Y55.300
G1 X-31.900 Y53.800
G1 X-32.500 Y55.300
G1 X-31.300 Y56.500
G1 X-31.300 Y57.100
G1 X-30.700 Y56.800
G1 X-29.500 Y57.400
G1 X-29.200 Y56.800
G1 X-26.500 Y54.400
G1 X-26.200 Y56.500
G1 X-26.500 Y58.600
G1 X-28.600 Y60.400
G1 X-29.200 Y57.700
G1 X-30.700 Y59.800
G1 X-30.100 Y60.400
G1 X-30.100 Y61.000
G1 X-28.900 Y61.900
G1 X-29.200 Y61.300
G1 X-29.200 Y61.900

G0 X-29.200 Y63.100

G1 X-29.200 Y63.700
G1 X-28.600 Y63.700
G1 X-28.600 Y62.800
G1 X-29.500 Y63.100
G1 X-29.500 Y62.500
G1 X-31.300 Y61.600
G1 X-31.000 Y62.200
G1 X-33.100 Y58.900
G1 X-33.400 Y57.700
G1 X-34.600 Y55.900
G1 X-34.600 Y54.700
G1 X-35.800 Y50.200
G1 X-35.800 Y51.400
G1 X-35.200 Y53.800
G1 X-37.300 Y54.100
G1 X-37.000 Y53.200
G1 X-37.900 Y52.000
G1 X-37.900 Y51.100
G1 X-37.600 Y48.700
G1 X-37.900 Y49.300
G1 X-38.500 Y46.000
G1 X-38.200 Y46.600
G1 X-37.900 Y45.400

G0 X-38.800 Y44.200

G1 X-38.200 Y45.100
G1 X-37.900 Y43.300
G1 X-37.000 Y41.200
G1 X-32.500 Y40.300
G1 X-31.900 Y40.000
G1 X-31.000 Y40.000
G1 X-31.300 Y42.100
G1 X-31.300 Y42.700
G1 X-32.500 Y42.400
G1 X-31.900 Y40.600
G1 X-33.100 Y40.900
G1 X-33.400 Y38.500
G1 X-32.500 Y38.800
G1 X-32.500 Y35.800
G1 X-31.900 Y36.100
G1 X-31.900 Y36.700
G1 X-32.200 Y37.300
G1 X-32.200 Y37.900
G1 X-33.700 Y37.000
G1 X-35.200 Y38.500
G1 X-34.600 Y38.500
G1 X-34.000 Y39.400
G1 X-34.000 Y40.600
G1 X-34.600 Y40.300

G0 X-34.600 Y40.000

G1 X-34.600 Y39.400
G1 X-34.300 Y40.000
G1 X-34.600 Y42.400
G1 X-34.600 Y49.300
G1 X-34.300 Y50.200
G1 X-34.000 Y52.600
G1 X-36.400 Y55.900
G1 X-37.300 Y53.200
G1 X-37.300 Y52.600
G1 X-37.900 Y50.200
G1 X-38.500 Y48.400
G1 X-38.500 Y47.800
G1 X-37.600 Y48.400
G1 X-37.600 Y43.900
G1 X-37.300 Y41.500
G1 X-37.900 Y41.800
G1 X-37.600 Y41.200
G1 X-37.900 Y40.600
G1 X-36.700 Y40.300
G1 X-36.100 Y36.700

G0 X-36.400 Y37.300

G1 X-36.400 Y36.700
G1 X-36.400 Y37.900
G1 X-37.000 Y40.000
G1 X-37.000 Y40.600
G1 X-37.900 Y41.500
G1 X-37.600 Y40.300
G1 X-37.000 Y39.400
G1 X-37.300 Y38.500
G1 X-37.300 Y37.600
G1 X-35.500 Y33.700
G1 X-35.800 Y32.200
G1 X-35.500 Y28.900
G1 X-34.900 Y29.500
G1 X-34.900 Y30.700
G1 X-33.400 Y25.000
G1 X-33.700 Y22.300
G1 X-33.100 Y19.900
G1 X-33.100 Y17.500
G1 X-32.800 Y16.000
G1 X-32.500 Y15.100
G1 X-32.500 Y13.000
G1 X-31.900 Y10.300
G1 X-31.000 Y9.400
G1 X-29.800 Y5.200
G1 X-28.900 Y2.200
G1 X-27.100 Y-3.200
G1 X-26.500 Y-4.400
G1 X-23.500 Y-8.600
G1 X-21.700 Y-11.000
G1 X-21.700 Y-12.200

G0 X-23.200 Y-8.600

G1 X-22.300 Y-9.800
G1 X-22.300 Y-10.700
G1 X-22.000 Y-11.600
G1 X-22.000 Y-12.200
G1 X-21.700 Y-14.300
G1 X-21.100 Y-15.800
G1 X-21.100 Y-16.700
G1 X-21.700 Y-12.800
G1 X-21.400 Y-12.200
G1 X-22.000 Y-11.000
G1 X-23.500 Y-8.900
G1 X-24.700 Y-7.700
G1 X-24.100 Y-7.100
G1 X-22.000 Y-9.800
G1 X-21.700 Y-10.700
G1 X-22.000 Y-14.600
G1 X-21.400 Y-15.800
G1 X-21.400 Y-16.700
G1 X-21.100 Y-17.900
G1 X-22.000 Y-18.200
G1 X-22.300 Y-19.100
G1 X-23.200 Y-18.500
G1 X-22.600 Y-18.200
G1 X-23.200 Y-18.800

G0 X-17.200 Y-14.300

G1 X-18.100 Y-14.000
G1 X-17.200 Y-15.200
G1 X-16.900 Y-15.800
G1 X-16.300 Y-15.500
G1 X-15.100 Y-17.000
G1 X-14.200 Y-17.900
G1 X-13.900 Y-18.800
G1 X-12.100 Y-20.000
G1 X-11.200 Y-20.900
G1 X-10.000 Y-21.200
G1 X-9.100 Y-22.100
G1 X-2.200 Y-24.200
G1 X-1.600 Y-24.200
G1 X-1.300 Y-24.800
G1 X-2.500 Y-24.200
G1 X-1.000 Y-23.000
G1 X-.700 Y-23.900
G1 X3.800 Y-23.000
G1 X4.400 Y-22.700
G1 X5.600 Y-22.400
G1 X6.200 Y-23.000
G1 X7.700 Y-21.200
G1 X6.500 Y-23.600
G1 X4.100 Y-23.300
G1 X3.500 Y-24.500
G1 X3.800 Y-21.500
G1 X4.400 Y-20.900
G1 X3.800 Y-20.600
G1 X5.000 Y-22.100
G1 X5.300 Y-20.900
G1 X5.900 Y-20.600
G1 X5.600 Y-21.500
G1 X6.800 Y-20.000
G1 X7.400 Y-20.300

G0 X8.000 Y-21.200

G1 X7.100 Y-20.600
G1 X8.300 Y-20.900
G1 X6.800 Y-24.200
G1 X7.700 Y-24.200
G1 X4.100 Y-21.800
G1 X3.200 Y-22.100
G1 X4.100 Y-21.500
G1 X2.600 Y-19.400
G1 X3.200 Y-23.000
G1 X3.800 Y-23.300
G1 X3.200 Y-22.400
G1 X5.300 Y-23.300
G1 X5.300 Y-21.500
G1 X6.800 Y-23.300
G1 X6.500 Y-24.200
G1 X8.900 Y-21.800
G1 X8.900 Y-22.700
G1 X8.000 Y-23.900
G1 X8.600 Y-20.300
G1 X10.400 Y-20.000
G1 X12.200 Y-20.900
G1 X9.500 Y-22.700
G1 X8.900 Y-20.600
G1 X11.000 Y-21.200
G1 X9.500 Y-22.100
G1 X8.600 Y-22.700

G0 X10.100 Y-20.300

G1 X11.300 Y-21.200
G1 X8.300 Y-23.300
G1 X8.600 Y-22.700
G1 X8.600 Y-21.500
G1 X9.500 Y-20.600
G1 X10.700 Y-20.300
G1 X12.200 Y-21.200
G1 X10.400 Y-22.400
G1 X9.800 Y-22.100
G1 X9.500 Y-21.500
G1 X15.200 Y-19.700
G1 X16.100 Y-19.400
G1 X15.200 Y-17.900
G1 X14.600 Y-18.500
G1 X14.600 Y-19.400
G1 X17.300 Y-14.600
G1 X17.900 Y-17.000
G1 X17.900 Y-17.900
G1 X19.100 Y-15.500
G1 X15.800 Y-18.500
G1 X16.400 Y-19.100
G1 X15.800 Y-18.800
G1 X16.700 Y-17.900
G1 X16.700 Y-16.700
G1 X16.700 Y-17.300

G0 X18.800 Y-16.400

G1 X18.500 Y-17.000
G1 X18.200 Y-17.900
G1 X17.000 Y-17.000
G1 X16.700 Y-16.400
G1 X15.200 Y-17.300
G1 X14.300 Y-18.500
G1 X14.300 Y-19.400
G1 X10.700 Y-20.900
G1 X10.100 Y-21.500
G1 X9.500 Y-21.200
G1 X9.200 Y-23.000
G1 X10.100 Y-22.700
G1 X7.400 Y-24.500
G1 X7.400 Y-25.100
G1 X6.800 Y-24.500
G1 X7.700 Y-24.800
G1 X7.700 Y-19.700
G1 X8.300 Y-19.100
G1 X8.900 Y-19.400
G1 X7.100 Y-20.300
G1 X8.000 Y-19.100
G1 X7.700 Y-18.500
G1 X11.000 Y-19.700
G1 X11.600 Y-20.000
G1 X10.400 Y-19.700
G1 X8.900 Y-20.000
G1 X8.300 Y-20.300
G1 X8.600 Y-19.700

G0 X4.700 Y-22.400

G1 X.200 Y-20.900
G1 X-.100 Y-20.300
G1 X.800 Y-20.000
G1 X.200 Y-19.400
G1 X1.100 Y-21.200
G1 X2.000 Y-22.100
G1 X-1.000 Y-21.200
G1 X-.400 Y-20.900
G1 X-1.300 Y-20.900
G1 X-2.800 Y-21.800
G1 X-1.300 Y-20.000
G1 X-2.800 Y-19.400
G1 X-3.400 Y-18.800
G1 X-3.100 Y-19.700
G1 X-2.200 Y-20.000
G1 X-1.300 Y-19.700
G1 X.200 Y-18.800
G1 X-.400 Y-20.600
G1 X-2.800 Y-20.900
G1 X-3.100 Y-21.800
G1 X-3.700 Y-20.900
G1 X-3.400 Y-19.700
G1 X.500 Y-22.700
G1 X.500 Y-21.800
G1 X.800 Y-21.200

G0 X-.700 Y-22.400

G1 X-.700 Y-21.800
G1 X-1.000 Y-22.400
G1 X-.400 Y-23.000
G1 X-.100 Y-24.200
G1 X2.300 Y-22.100
G1 X2.900 Y-20.300
G1 X-3.700 Y-22.400
G1 X-4.300 Y-22.100
G1 X-5.200 Y-23.600
G1 X-6.400 Y-22.400
G1 X-8.200 Y-23.300
G1 X-6.700 Y-24.800
G1 X-7.000 Y-23.900
G1 X-5.800 Y-25.400
G1 X-3.700 Y-24.500
G1 X-2.800 Y-24.500
G1 X-4.000 Y-25.700
G1 X-4.300 Y-25.100
G1 X-2.800 Y-26.300
G1 X.200 Y-24.200
G1 X-.100 Y-24.800
G1 X-1.600 Y-25.700
G1 X-.700 Y-25.700
G1 X-1.000 Y-24.200
G1 X-3.400 Y-23.000

G0 X-2.800 Y-23.600

G1 X-1.600 Y-22.100
G1 X-.400 Y-23.600
G1 X-.100 Y-23.000
G1 X.500 Y-23.300
G1 X-.100 Y-22.400
G1 X.200 Y-23.000
G1 X-.700 Y-22.400
G1 X-.400 Y-21.800
G1 X1.100 Y-21.500
G1 X1.100 Y-22.400
G1 X1.400 Y-24.200
G1 X2.300 Y-22.400
G1 X1.700 Y-23.000
G1 X.200 Y-25.100
G1 X.200 Y-24.500
G1 X-.700 Y-26.000
G1 X-1.300 Y-26.000
G1 X-2.500 Y-27.200
G1 X-2.800 Y-26.600
G1 X-4.300 Y-26.000
G1 X-4.600 Y-25.100
G1 X-5.500 Y-24.200
G1 X-7.000 Y-23.000
G1 X-6.100 Y-23.300

G0 X-6.700 Y-20.600

G1 X-6.100 Y-21.200
G1 X-4.900 Y-22.100
G1 X-5.800 Y-21.200
G1 X-8.200 Y-19.400
G1 X-7.900 Y-20.300
G1 X-6.700 Y-20.900
G1 X-7.600 Y-20.300
G1 X-6.100 Y-20.300
G1 X-5.200 Y-20.900
G1 X-2.800 Y-20.000
G1 X-3.700 Y-21.500
G1 X-4.000 Y-22.400
G1 X-3.400 Y-21.800
G1 X-4.600 Y-19.700
G1 X-3.400 Y-19.400
G1 X-5.500 Y-23.000
G1 X-4.000 Y-24.800
G1 X-3.400 Y-24.800
G1 X-2.800 Y-25.700
G1 X-2.800 Y-24.800
G1 X-2.200 Y-25.700
G1 X-2.800 Y-27.200
G1 X-3.700 Y-26.000
G1 X-3.100 Y-26.300
G1 X-3.400 Y-26.900

G0 X-1.900 Y-23.300

G1 X-2.200 Y-22.700
G1 X-4.000 Y-22.700
G1 X-1.900 Y-25.400
G1 X-.400 Y-22.400
G1 X-2.200 Y-23.300
G1 X.500 Y-20.000
G1 X.800 Y-23.000
G1 X-4.900 Y-24.500
G1 X-5.800 Y-23.300
G1 X-7.000 Y-22.400
G1 X-8.800 Y-21.800
G1 X-13.000 Y-19.100
G1 X-15.100 Y-17.300
G1 X-17.200 Y-14.900
G1 X-16.300 Y-15.200
G1 X-12.700 Y-19.100
G1 X-10.000 Y-20.600
G1 X-8.800 Y-21.500
G1 X-7.000 Y-22.100
G1 X-6.100 Y-23.600
G1 X-4.300 Y-23.900
G1 X-4.900 Y-24.200
G1 X-2.800 Y-26.000
G1 X-1.900 Y-25.100
G1 X-4.000 Y-23.300
G1 X-4.600 Y-21.800
G1 X-6.400 Y-20.600
G1 X-1.900 Y-22.700
G1 X-3.400 Y-20.600
G1 X-1.000 Y-20.300
G1 X-1.300 Y-18.800

G0 X-2.200 Y-10.700

G1 X-.400 Y-10.100
G1 X.500 Y-10.100
G1 X5.000 Y-9.200
G1 X4.400 Y-9.500
G1 X6.800 Y-9.200
G1 X8.300 Y-8.600
G1 X5.900 Y-8.900
G1 X4.400 Y-8.900
G1 X2.300 Y-9.500
G1 X1.400 Y-9.500
G1 X-3.700 Y-10.700
G1 X-5.500 Y-10.100
G1 X-4.600 Y-10.100
G1 X-1.900 Y-10.700
G1 X-.400 Y-10.400
G1 X7.100 Y-9.500
G1 X8.900 Y-8.600
G1 X10.100 Y-8.600
G1 X8.000 Y-9.200
G1 X6.500 Y-8.300
G1 X9.800 Y-5.900
G1 X10.700 Y-5.300
G1 X9.800 Y-5.600
G1 X10.400 Y-5.900
G1 X8.900 Y-6.800

G0 X8.300 Y-7.400

G1 X7.400 Y-6.800
G1 X6.800 Y-7.400
G1 X8.000 Y-7.700
G1 X8.900 Y-5.900
G1 X9.500 Y-5.900
G1 X7.700 Y-9.800
G1 X8.600 Y-9.200
G1 X10.100 Y-8.900
G1 X10.700 Y-8.300
G1 X7.100 Y-8.300
G1 X8.000 Y-8.900
G1 X7.100 Y-9.800
G1 X7.700 Y-9.500
G1 X6.200 Y-8.600
G1 X6.500 Y-10.100
G1 X5.900 Y-10.100
G1 X-2.200 Y-8.300
G1 X-2.500 Y-9.200
G1 X-1.600 Y-9.800
G1 X-5.200 Y-9.800
G1 X-7.300 Y-6.800
G1 X-7.900 Y-7.700
G1 X-7.900 Y-7.100
G1 X-9.400 Y-9.800
G1 X-9.400 Y-11.000
G1 X-10.000 Y-9.200
G1 X-6.700 Y-11.000
G1 X-7.600 Y-9.500

G0 X-7.300 Y-9.500

G1 X-6.700 Y-9.500
G1 X-7.300 Y-9.200
G1 X-8.800 Y-8.600
G1 X-9.100 Y-11.000
G1 X-9.100 Y-11.600
G1 X-1.300 Y-11.000
G1 X-2.200 Y-10.100
G1 X-6.100 Y-11.000
G1 X-5.800 Y-10.100
G1 X-4.300 Y-9.800
G1 X-5.800 Y-10.700
G1 X-7.300 Y-9.500
G1 X-8.500 Y-8.900
G1 X-7.300 Y-7.700
G1 X-5.500 Y-7.400
G1 X-5.500 Y-6.500
G1 X-4.600 Y-6.500
G1 X-9.100 Y-5.000
G1 X-13.900 Y-3.200
G1 X-12.700 Y-1.700
G1 X-11.200 Y-1.400
G1 X-8.200 Y-4.400
G1 X-5.500 Y-3.200
G1 X-5.200 Y-3.800
G1 X-3.400 Y-3.200

G0 X-3.400 Y-2.900

G1 X-2.800 Y-2.600
G1 X-3.400 Y-2.300
G1 X-5.800 Y-2.900
G1 X-11.200 Y-2.600
G1 X-10.000 Y-3.500
G1 X-8.500 Y-3.200
G1 X-8.200 Y-2.600
G1 X-5.800 Y-1.100
G1 X-7.900 Y-2.000
G1 X-8.500 Y-2.300
G1 X-7.900 Y-1.700
G1 X1.100 Y-3.500
G1 X-4.300 Y-4.400
G1 X-2.200 Y-2.300
G1 X-3.400 Y-2.000
G1 X-2.800 Y-.800
G1 X1.400 Y-1.100
G1 X3.500 Y-.500
G1 X4.100 Y-1.100
G1 X2.000 Y-4.400
G1 X-1.300 Y-4.400
G1 X-3.400 Y-4.100
G1 X-8.500 Y-3.800
G1 X-13.300 Y-6.200
G1 X-13.600 Y-5.000
G1 X-16.600 Y-3.800
G1 X-16.600 Y-2.900

G0 X-13.900 Y-4.100

G1 X-14.200 Y-3.500
G1 X-12.100 Y-5.000
G1 X-11.200 Y-5.000
G1 X-10.300 Y-5.300
G1 X-7.900 Y-4.100
G1 X-12.400 Y-3.500
G1 X-11.800 Y-2.900
G1 X-12.700 Y-2.900
G1 X-13.000 Y-1.700
G1 X-12.400 Y-2.000
G1 X-13.300 Y-2.900
G1 X-13.900 Y-2.000
G1 X-13.600 Y.100
G1 X-10.600 Y-1.400
G1 X-13.300 Y.400
G1 X-11.500 Y.700
G1 X-13.900 Y-2.900
G1 X-17.200 Y-2.600
G1 X-15.700 Y-5.300
G1 X-15.700 Y-4.400
G1 X-16.300 Y-4.700
G1 X-16.600 Y-4.100
G1 X-14.200 Y-5.300
G1 X-15.100 Y-4.700
G1 X-13.900 Y-4.100

G0 X-13.600 Y-3.800

G1 X-13.000 Y-3.200
G1 X-13.900 Y-3.500
G1 X-13.600 Y-4.400
G1 X-12.700 Y-4.100
G1 X-7.000 Y-5.900
G1 X-4.900 Y-7.400
G1 X-3.400 Y-7.400
G1 X-7.900 Y-5.900
G1 X-11.800 Y-5.300
G1 X-14.500 Y-4.100
G1 X-13.600 Y1.300
G1 X-13.000 Y3.400
G1 X-13.300 Y4.300
G1 X-13.000 Y1.900
G1 X-14.200 Y.100
G1 X-15.400 Y1.900
G1 X-15.400 Y.700
G1 X-14.800 Y1.300
G1 X-15.100 Y3.100
G1 X-10.000 Y-5.300
G1 X-9.400 Y-5.300
G1 X-5.800 Y-7.100
G1 X-6.700 Y-6.500
G1 X-7.600 Y-7.700
G1 X-6.700 Y-8.300

G0 X-4.000 Y-9.200

G1 X-6.400 Y-8.300
G1 X-6.100 Y-9.800
G1 X-10.900 Y-5.600
G1 X-12.700 Y-6.200
G1 X-13.300 Y-5.600
G1 X-13.300 Y-5.000
G1 X-12.400 Y-5.300
G1 X-13.600 Y-6.200
G1 X-14.200 Y-5.000
G1 X-10.300 Y-3.500
G1 X-11.200 Y-2.900
G1 X-8.500 Y-2.900
G1 X-12.100 Y.100
G1 X-12.700 Y.700
G1 X-13.300 Y.700
G1 X-13.000 Y1.600
G1 X-6.400 Y-3.200
G1 X-7.600 Y-3.200
G1 X-6.100 Y-4.100
G1 X-7.000 Y-4.100
G1 X-7.600 Y-5.300
G1 X-8.500 Y-5.000
G1 X-9.100 Y-5.900
G1 X-8.500 Y-5.600

G0 X-6.400 Y-3.500

G1 X-5.800 Y-3.500
G1 X-5.200 Y-3.200
G1 X-4.300 Y-2.600
G1 X-3.100 Y-2.600
G1 X-4.900 Y-3.200
G1 X-4.600 Y-4.100
G1 X-6.400 Y-3.800
G1 X-7.900 Y-2.600
G1 X-7.300 Y-2.300
G1 X-6.700 Y-2.300
G1 X-5.500 Y-1.400
G1 X-4.900 Y-1.400
G1 X-4.300 Y-.500
G1 X-1.600 Y-.500
G1 X.800 Y-1.700
G1 X1.700 Y-1.400
G1 X2.300 Y-1.700
G1 X3.200 Y-1.400
G1 X6.200 Y-1.100
G1 X.500 Y-4.100
G1 X2.900 Y-3.800
G1 X3.800 Y-3.200
G1 X-1.900 Y-1.100
G1 X-4.300 Y-.800
G1 X-5.200 Y-.800

G0 X-3.700 Y-4.100

G1 X-4.300 Y-4.100
G1 X2.900 Y-4.100
G1 X1.400 Y-3.800
G1 X-4.000 Y-3.800
G1 X-6.100 Y-3.200
G1 X-7.300 Y-3.500
G1 X-9.400 Y-2.600
G1 X-13.600 Y-4.100
G1 X-12.700 Y-3.200
G1 X-11.500 Y-3.200
G1 X-10.900 Y-3.500
G1 X-9.100 Y-2.900
G1 X-7.600 Y-2.000
G1 X-7.000 Y-2.000
G1 X-5.500 Y-1.100
G1 X-1.600 Y-.800
G1 X1.400 Y-1.700
G1 X5.300 Y-.500
G1 X6.800 Y-.800
G1 X8.600 Y-.800
G1 X6.500 Y-.500
G1 X5.300 Y-.800
G1 X4.400 Y-.500
G1 X2.900 Y-.800

G0 X1.700 Y-1.100

G1 X4.400 Y-.800
G1 X5.600 Y-.800
G1 X9.500 Y-1.700
G1 X8.900 Y-2.300
G1 X8.300 Y-2.600
G1 X5.900 Y-3.200
G1 X5.000 Y-3.200
G1 X3.200 Y-4.100
G1 X4.100 Y-4.100
G1 X10.100 Y-2.600
G1 X9.500 Y-2.300
G1 X9.500 Y-2.900
G1 X8.000 Y-3.200
G1 X9.500 Y-2.000
G1 X10.400 Y-2.000
G1 X11.300 Y-2.300
G1 X13.400 Y-2.300
G1 X14.300 Y-2.000
G1 X15.200 Y-2.000
G1 X16.400 Y-2.300
G1 X11.600 Y-2.000
G1 X4.400 Y-3.800
G1 X2.600 Y-3.800

G0 X2.300 Y-4.400

G1 X3.800 Y-4.400
G1 X5.000 Y-4.100
G1 X4.100 Y-3.200
G1 X4.700 Y-3.500
G1 X5.600 Y-3.500
G1 X6.800 Y-3.800
G1 X11.000 Y-2.600
G1 X9.800 Y-1.700
G1 X10.700 Y-1.700
G1 X11.900 Y-2.000
G1 X13.400 Y-1.700
G1 X15.500 Y-1.700
G1 X15.800 Y-2.300
G1 X11.900 Y-1.700
G1 X9.800 Y-2.900
G1 X12.500 Y-2.600
G1 X15.800 Y-2.600
G1 X17.600 Y-2.300
G1 X17.000 Y-2.000
G1 X16.100 Y-2.000
G1 X16.700 Y-2.300
G1 X18.500 Y-1.700
G1 X19.400 Y-.500
G1 X19.400 Y1.300

G0 X19.400 Y1.600

G1 X19.400 Y2.200
G1 X20.000 Y3.700
G1 X18.800 Y-2.000
G1 X17.600 Y-1.700
G1 X15.800 Y-1.700
G1 X14.000 Y-2.300
G1 X12.800 Y-2.300
G1 X12.200 Y-4.400
G1 X11.000 Y-4.700
G1 X10.400 Y-5.300
G1 X10.700 Y-5.900
G1 X11.900 Y-5.600
G1 X7.400 Y-2.600
G1 X6.800 Y-2.600
G1 X2.900 Y-1.700
G1 X3.500 Y-2.300
G1 X1.700 Y-2.000
G1 X1.100 Y-2.000
G1 X-1.300 Y-1.100
G1 X-2.800 Y-2.300
G1 X-1.900 Y-2.600
G1 X-.400 Y-2.600
G1 X-1.300 Y-3.200
G1 X-.700 Y-3.500
G1 X.200 Y-3.500

G0 X.200 Y-4.100

G1 X-.400 Y-4.100
G1 X-4.300 Y-3.200
G1 X-5.800 Y-1.400
G1 X-4.000 Y-2.300
G1 X-1.600 Y2.500
G1 X-2.200 Y2.200
G1 X-2.800 Y2.200
G1 X-2.500 Y1.600
G1 X-1.600 Y1.600
G1 X-1.000 Y2.200
G1 X.200 Y1.600
G1 X2.600 Y1.600
G1 X3.200 Y1.900
G1 X2.600 Y1.900
G1 X2.000 Y1.000
G1 X.200 Y1.300
G1 X-1.300 Y2.200
G1 X-2.500 Y1.900
G1 X-1.600 Y1.900
G1 X.200 Y1.000
G1 X2.000 Y1.300
G1 X.500 Y1.300
G1 X1.100 Y1.300

G0 X1.100 Y-1.400

G1 X.500 Y-1.400
G1 X1.400 Y-1.400
G1 X-.400 Y-2.900
G1 X.200 Y-2.900
G1 X1.100 Y-3.200
G1 X2.300 Y-3.500
G1 X2.900 Y-3.500
G1 X2.000 Y-2.900
G1 X4.100 Y-3.500
G1 X3.800 Y-4.100
G1 X1.700 Y-4.100
G1 X2.000 Y-1.400
G1 X2.600 Y-1.400
G1 X2.900 Y-.200
G1 X2.300 Y-.500
G1 X1.400 Y-.800
G1 X-2.200 Y-.200
G1 X-5.800 Y-.800
G1 X-4.000 Y-1.700
G1 X-4.000 Y-.800
G1 X-5.200 Y-2.600
G1 X-3.100 Y-2.900
G1 X-1.300 Y-4.100
G1 X-1.600 Y-3.200

G0 X-1.600 Y-2.300

G1 X-2.200 Y-2.000
G1 X-.700 Y-1.700
G1 X-.100 Y-2.300
G1 X-4.900 Y-.500
G1 X-4.900 Y-1.100
G1 X-5.500 Y-2.000
G1 X-6.400 Y-1.700
G1 X-9.700 Y1.600
G1 X-9.100 Y1.300
G1 X-9.400 Y1.900
G1 X-9.100 Y2.800
G1 X-9.700 Y3.100
G1 X-8.800 Y4.000
G1 X-10.900 Y-.200
G1 X-10.300 Y-1.100
G1 X-8.800 Y-2.300
G1 X-8.500 Y-1.100
G1 X-7.600 Y-2.600
G1 X-7.000 Y-2.600
G1 X-6.400 Y-2.300
G1 X-2.500 Y-3.800
G1 X-3.100 Y-3.800
G1 X-2.800 Y-4.400
G1 X-6.400 Y-4.400
G1 X-7.300 Y-5.900
G1 X-7.900 Y-6.500
